!!!!SEGMENT: pl-sa--222-a-vi-26--002_loos-karel--levavi-osculos-meos.krn
!!!cenid: 17xx:595
!!!COM: Loos, Karel
!!!COM-rismid: pe30002000
!!!CDT:
!!!CNT:
!!!OTL: Levavi osculos meos
!!!PDT:
!!!AGN: Sacred
!!!SMS-siglum: PL-SA
!!!SMS-shelfmark: 222/A VI 26
!!!SMS-shelfwork: 002 W
!!!SMS-variant:
!!!SMS-altvar:
!!!NIFC-rismid: 1001062981
!!!URL-scan: http://bc.bdsandomierz.pl/dlibra/publication/1578/edition/1546/content
!!!ONB-nifc: UWAGA: części Mszy: Kyrie, Gloria, Credo, Sanctus, Agnus Dei
**kern	**fba	**dynam	**kern	**dynam	**kern	**kern	**text	**dynam	**kern	**text	**dynam	**kern	**text	**dynam	**kern	**text	**kern	**kern
*part9	*	*	*part8	*part8	*part7	*part6	*part6	*part6	*part5	*part5	*part5	*part4	*part4	*part4	*part3	*part3	*part2	*part1
*staff9	*	*	*staff8	*	*staff7	*staff6	*staff6	*	*staff5	*staff5	*	*staff4	*staff4	*	*staff3	*staff3	*staff2	*staff1
*I"Baſso	*	*	*I"Violino Secundo.	*	*I"Violino 1mo.	*I"Baſso	*	*	*I"Tenore	*	*	*I"Alto	*	*	*I"Canto	*	*I"Cornus Secundo Ex Ex	*I"Cornu Primo ex F
*I'b	*	*	*I'vl 2	*	*I'vl 1	*I'B	*	*	*I'T	*	*	*I'A	*	*	*I'S	*	*I'cor 2 in E	*I'cor 1 in E
*clefF4	*	*	*clefG2	*	*clefG2	*clefF4	*	*	*clefC4	*	*	*clefC3	*	*	*clefC1	*	*clefG2	*clefG2
*ITrd0c0	*	*	*	*	*	*	*	*	*	*	*	*	*	*	*	*	*ITrd5c8	*ITrd5c8
*k[f#c#g#d#]	*	*	*k[f#c#g#d#]	*	*k[f#c#g#d#]	*k[f#c#g#d#]	*	*	*k[f#c#g#d#]	*	*	*k[f#c#g#d#]	*	*	*k[f#c#g#d#]	*	*k[f#c#g#d#]	*k[f#c#g#d#]
*E:	*	*	*E:	*	*E:	*E:	*	*	*E:	*	*	*E:	*	*	*E:	*	*E:	*E:
*M2/4	*	*	*M2/4	*	*M2/4	*M2/4	*	*	*M2/4	*	*	*M2/4	*	*	*M2/4	*	*M2/4	*M2/4
=1	=1	=1	=1	=1	=1	=1	=1	=1	=1	=1	=1	=1	=1	=1	=1	=1	=1	=1
!	!	!	!	!	!	!	!	!	!	!	!	!	!	!	!LO:TX:a:t=P:problem:w źródle tylko dwa znaki przykluczowe: cc#, f# (w pozostałych głosach 4 znaki)	!	!LO:TX:a:t=4	!
!LO:TX:i:a:B:t=Andante	!	!	!LO:TX:i:a:B:t=Andante	!	!LO:TX:i:a:B:t=Andante	!LO:TX:i:a:B:t=Andante	!	!	!LO:TX:i:a:B:t=andante	!	!	!LO:TX:i:a:B:t=Andante	!	!	!LO:TX:a:t=10	!	!LO:TX:i:a:B:t=Andante	!LO:TX:i:a:B:t=Andante.
!	!	!	!	!	!	!	!	!	!	!	!	!	!	!	!LO:TX:a:t=P:problem:w źródle: 30 taktów pauz	!	!	!
!	!	!	!	!	!	!LO:N:vis=00	!	!	!LO:N:vis=00	!	!	!LO:N:vis=00	!	!	!LO:N:vis=00	!	!LO:N:vis=00	!LO:N:vis=00
8E\L	.	.	8g#/	.	8b\	0r	.	.	0r	.	.	0r	.	.	0r	.	0r	0r
8E\	.	.	4g#/	.	4b\	.	.	.	.	.	.	.	.	.	.	.	.	.
8E\	.	.	.	.	.	.	.	.	.	.	.	.	.	.	.	.	.	.
*	*	*	*	*	*Xtuplet	*	*	*	*	*	*	*	*	*	*	*	*	*
!	!	!	!LO:TUP:b	!	!	!	!	!	!	!	!	!	!	!	!	!	!	!
!	!	!	!LO:TUP:b:problem:klamra łukowa	!	!	!	!	!	!	!	!	!	!	!	!	!	!	!
8E\J	6 4	.	24a/LL	.	24cc#\LL	.	.	.	.	.	.	.	.	.	.	.	.	.
.	.	.	24g#/	.	24b\	.	.	.	.	.	.	.	.	.	.	.	.	.
.	.	.	24f#/JJ	.	24a\JJ	.	.	.	.	.	.	.	.	.	.	.	.	.
=2	=2	=2	=2	=2	=2	=2	=2	=2	=2	=2	=2	=2	=2	=2	=2	=2	=2	=2
!LO:TX:i:a:B:t=Solo	!	!	!	!	!	!	!	!	!	!	!	!	!	!	!	!	!	!
8E\L	6 3	.	8g#/	.	8b\	.	.	.	.	.	.	.	.	.	.	.	.	.
!	!	!	!	!	!LO:TUP:a:problem:klamra łukowa	!	!	!	!	!	!	!	!	!	!	!	!	!
8E\	.	.	4g#/	.	24ee\LL	.	.	.	.	.	.	.	.	.	.	.	.	.
.	.	.	.	.	24dd#\	.	.	.	.	.	.	.	.	.	.	.	.	.
.	.	.	.	.	24cc#\JJ	.	.	.	.	.	.	.	.	.	.	.	.	.
8E\	.	.	.	.	8b\L	.	.	.	.	.	.	.	.	.	.	.	.	.
8E\J	.	.	8g#/	.	8g#\J	.	.	.	.	.	.	.	.	.	.	.	.	.
=3	=3	=3	=3	=3	=3	=3	=3	=3	=3	=3	=3	=3	=3	=3	=3	=3	=3	=3
8E\L	6 4	.	8a/	.	8cc#\	.	.	.	.	.	.	.	.	.	.	.	.	.
8E\	.	.	4a/	.	4cc#\	.	.	.	.	.	.	.	.	.	.	.	.	.
8E\	.	.	.	.	.	.	.	.	.	.	.	.	.	.	.	.	.	.
8E\J	.	.	8g#/	.	16b\LL	.	.	.	.	.	.	.	.	.	.	.	.	.
.	.	.	.	.	16ee\JJ	.	.	.	.	.	.	.	.	.	.	.	.	.
=4	=4	=4	=4	=4	=4	=4	=4	=4	=4	=4	=4	=4	=4	=4	=4	=4	=4	=4
8BB\L	.	.	8f#/L	.	8a\L	.	.	.	.	.	.	.	.	.	.	.	.	.
8E\J	.	.	8e/J	.	8g#\J	.	.	.	.	.	.	.	.	.	.	.	.	.
4E\	.	.	4r	.	4r	.	.	.	.	.	.	.	.	.	.	.	.	.
=5	=5	=5	=5	=5	=5	=5	=5	=5	=5	=5	=5	=5	=5	=5	=5	=5	=5	=5
!	!	!	!	!	!	!LO:N:vis=00	!	!	!LO:N:vis=00	!	!	!LO:N:vis=00	!	!	!LO:N:vis=00	!	!	!
8D#/L	X 6	.	8f#/L	.	8b\	0r	.	.	0r	.	.	0r	.	.	0r	.	2B/	2B/
8C#/	.	.	8e/	.	4b\	.	.	.	.	.	.	.	.	.	.	.	.	.
8BB/	.	.	8d#/	.	.	.	.	.	.	.	.	.	.	.	.	.	.	.
8D#/J	.	.	8f#/J	.	8aa\	.	.	.	.	.	.	.	.	.	.	.	.	.
=6	=6	=6	=6	=6	=6	=6	=6	=6	=6	=6	=6	=6	=6	=6	=6	=6	=6	=6
8E\L	.	.	8g#/L	.	16.gg#\LL	.	.	.	.	.	.	.	.	.	.	.	2B/	2B/
.	.	.	.	.	32bb\K	.	.	.	.	.	.	.	.	.	.	.	.	.
8F#\	.	.	8a/	.	16.dd#X\	.	.	.	.	.	.	.	.	.	.	.	.	.
.	.	.	.	.	32ff#\JJk	.	.	.	.	.	.	.	.	.	.	.	.	.
!	!	!	!	!	!LO:TX:a:t=P:problem:mixed beam	!	!	!	!	!	!	!	!	!	!	!	!	!
8G#\	.	.	8b/	.	16.ee\LL	.	.	.	.	.	.	.	.	.	.	.	.	.
.	.	.	.	.	32e/K	.	.	.	.	.	.	.	.	.	.	.	.	.
8E\J	.	.	8g#/J	.	16.g#/	.	.	.	.	.	.	.	.	.	.	.	.	.
.	.	.	.	.	32b/JJk	.	.	.	.	.	.	.	.	.	.	.	.	.
=7	=7	=7	=7	=7	=7	=7	=7	=7	=7	=7	=7	=7	=7	=7	=7	=7	=7	=7
8D#/L	.	.	8f#/L	.	8b\	.	.	.	.	.	.	.	.	.	.	.	2B/	2B/
8C#/	.	.	8e/	.	4b\	.	.	.	.	.	.	.	.	.	.	.	.	.
8BB/	.	.	8d#/	.	.	.	.	.	.	.	.	.	.	.	.	.	.	.
8D#/J	.	.	8f#/J	.	8aa\	.	.	.	.	.	.	.	.	.	.	.	.	.
=8	=8	=8	=8	=8	=8	=8	=8	=8	=8	=8	=8	=8	=8	=8	=8	=8	=8	=8
8E\L	.	.	8g#/L	.	16.gg#\LL	.	.	.	.	.	.	.	.	.	.	.	4B/	4B/
.	.	.	.	.	32bb\K	.	.	.	.	.	.	.	.	.	.	.	.	.
8F#\	.	.	8a/	.	16.dd#\	.	.	.	.	.	.	.	.	.	.	.	.	.
.	.	.	.	.	32ff#\JJk	.	.	.	.	.	.	.	.	.	.	.	.	.
8G#\	.	.	8b/	.	16.ee\LL	.	.	.	.	.	.	.	.	.	.	.	4r	4r
.	.	.	.	.	32gg#\K	.	.	.	.	.	.	.	.	.	.	.	.	.
8E\J	.	.	8g#/J	.	16.b\	.	.	.	.	.	.	.	.	.	.	.	.	.
.	.	.	.	.	32ddn\JJk	.	.	.	.	.	.	.	.	.	.	.	.	.
=9	=9	=9	=9	=9	=9	=9	=9	=9	=9	=9	=9	=9	=9	=9	=9	=9	=9	=9
!LO:TX:a:t=P:problem:mixed beam	!	!	!	!	!	!LO:N:vis=0	!	!	!LO:N:vis=0	!	!	!LO:N:vis=0	!	!	!LO:N:vis=0	!	!	!
8A\L	.	.	16.a/LL	.	16.cc#/LL	1r	.	.	1r	.	.	1r	.	.	1r	.	16r	16r
.	.	.	.	.	.	.	.	.	.	.	.	.	.	.	.	.	16a\LL	16cc#\LL
.	.	.	32a/K	.	32a/K	.	.	.	.	.	.	.	.	.	.	.	.	.
8F#\	.	.	16.g#/	.	16.g#/	.	.	.	.	.	.	.	.	.	.	.	16g#\	16b\
.	.	.	.	.	.	.	.	.	.	.	.	.	.	.	.	.	16f#\JJ	16a\JJ
.	.	.	32f#/JJk	.	32f#/JJk	.	.	.	.	.	.	.	.	.	.	.	.	.
8B\	.	.	8e/L	.	8e/L	.	.	.	.	.	.	.	.	.	.	.	8e\L	8g#\L
8BB/J	.	.	8d#/J	.	8d#/J	.	.	.	.	.	.	.	.	.	.	.	8B\J	8f#\J
!	!	!	!	!	!LO:LB:g=original	!	!	!	!	!	!	!	!	!	!	!	!	!
=10	=10	=10	=10	=10	=10	=10	=10	=10	=10	=10	=10	=10	=10	=10	=10	=10	=10	=10
4E\	.	.	8e/L	.	8e/L	.	.	.	.	.	.	.	.	.	.	.	8G#/L	8e\L
.	.	.	8B/	.	8B/	.	.	.	.	.	.	.	.	.	.	.	16G#/L	16B\L
.	.	.	.	.	.	.	.	.	.	.	.	.	.	.	.	.	16G#/JJ	16B\JJ
4r	.	.	8e/J	.	8e/J	.	.	.	.	.	.	.	.	.	.	.	8G#/L	8B/L
!	!	!	!	!	!LO:TX:a:t=P:problem:fermata pod i nad pauzą	!	!	!	!	!	!	!	!	!	!	!	!	!
.	.	.	8r	.	8r;<;>	.	.	.	.	.	.	.	.	.	.	.	8E/J	8G#/J
!	!	!	!LO:LB:g=original	!	!	!	!	!	!	!	!	!	!	!	!	!	!	!
=11	=11	=11	=11	=11	=11	=11	=11	=11	=11	=11	=11	=11	=11	=11	=11	=11	=11	=11
*	*	*	*	*	*	*	*	*	*	*	*	*	*	*	*	*	*	*2\right
!	!	!	!LO:TX:i:a:t=Tutti&colon;	!	!	!	!	!	!	!	!	!	!	!	!LO:TX:a:t=P:problem:takt przepełniony na pierwszą miarę pojawia się tutaj pauza - wydaje się niepotrzebna	!	!	!
8E\L	.	.	8g#/	.	8b\	8E\	Le-	.	8e\	Le-	.	8g#\	Le-	.	8r	.	2E/	2e\
8E\	.	.	4g#/	.	4b\	4E\	-va-	.	4e\	-va-	.	4g#\	-va-	.	8b\	Le-	.	.
!	!	!	!	!	!	!	!	!	!	!	!	!	!	!	!LO:SIC:s=4b	!	!	!
!	!	!	!	!	!	!	!	!	!	!	!	!	!	!	!LO:N:vis=4	!	!	!
8E\	.	.	.	.	.	.	.	.	.	.	.	.	.	.	8b\	-va-	.	.
8E\J	6 4	.	8g#/	.	24cc#\LL	8E\	-vi	.	8e\	-vi	.	16a\LL	-vi	.	16cc#\LL	-vi	.	.
.	.	.	.	.	24b\	.	.	.	.	.	.	.	.	.	.	.	.	.
.	.	.	.	.	.	.	.	.	.	.	.	16f#\JJ	.	.	16a\JJ	.	.	.
.	.	.	.	.	24a\JJ	.	.	.	.	.	.	.	.	.	.	.	.	.
=12	=12	=12	=12	=12	=12	=12	=12	=12	=12	=12	=12	=12	=12	=12	=12	=12	=12	=12
8E\L	X 5	.	8g#/	.	8b\	8.E\	o-	.	8.e\	o-	.	8.g#\	o-	.	8b\	o-	2E/	2e\
!	!	!	!	!	!	!	!	!	!	!	!	!	!	!	!LO:TUP:a:problem:klamra łukowa	!	!	!
8E\	.	.	4g#/	.	24ee\LL	.	.	.	.	.	.	.	.	.	24ee\LL	-cu-	.	.
.	.	.	.	.	24dd#\	.	.	.	.	.	.	.	.	.	24dd#\	.	.	.
.	.	.	.	.	.	16E\	-cu-	.	16e\	-cu-	.	16g#\	-cu-	.	.	.	.	.
.	.	.	.	.	24cc#\JJ	.	.	.	.	.	.	.	.	.	24cc#\JJ	.	.	.
8E\	.	.	.	.	8b\L	8E\	-los	.	8e\	-los	.	8g#\	-los	.	8b\	-los	.	.
8E\J	.	.	8g#/	.	8g#\J	8r	.	.	8r	.	.	8r	.	.	8r	.	.	.
!LO:LB:g=original	!	!	!	!	!	!	!	!	!	!	!	!	!	!	!	!	!	!
=13	=13	=13	=13	=13	=13	=13	=13	=13	=13	=13	=13	=13	=13	=13	=13	=13	=13	=13
8E\L	6 4	.	8aa\	.	8ccc#\	8E\	me-	.	8e\	me-	.	8a\	me-	.	8cc#\	me-	4E/	4e\
8E\	.	.	4aa\	.	4ccc#\	4E\	-os	.	4e\	-os	.	4a\	-os	.	4cc#\	-os	.	.
8E\	.	.	.	.	.	.	.	.	.	.	.	.	.	.	.	.	8r	8r
8E\J	.	.	8gg#\	.	8bb\	8E\	in	.	8e\	in	.	8a\	in	.	16b\LL	in	8g#\	8b\
.	.	.	.	.	.	.	.	.	.	.	.	.	.	.	16ee\JJ	.	.	.
=14	=14	=14	=14	=14	=14	=14	=14	=14	=14	=14	=14	=14	=14	=14	=14	=14	=14	=14
!	!	!	!	!	!	!	!	!	!LO:TUP:a:problem:klamra łukowa	!	!	!	!	!	!	!	!	!
8BB/L	.	.	8ff#\L	.	8aa\L	8B\	mon-	.	24f#\LL	mon-	.	8f#\	mon-	.	8a\	mon-	8f#\L	8a\L
.	.	.	.	.	.	.	.	.	24e\	.	.	.	.	.	.	.	.	.
.	.	.	.	.	.	.	.	.	24d#\JJ	.	.	.	.	.	.	.	.	.
8E/J	.	.	8ee\J	.	8gg#\J	8e\	-tes	.	8e\	-te	.	8e\	-tes	.	8g#\	-tes	8e\J	8g#\J
4r	.	.	4r	.	4r	4r	.	.	4r	.	.	4r	.	.	4r	.	4e\	4g#\
=15	=15	=15	=15	=15	=15	=15	=15	=15	=15	=15	=15	=15	=15	=15	=15	=15	=15	=15
8D#/L	X 6	.	8f#/L	.	8b\	8D#/L	Le-	.	8B\	Le-	.	8f#\L	Le-	.	8b\	le-	8B/	8g#\
8C#/	.	.	8e/	.	4b\	8C#/J	.	.	4B\	-va-	.	8e\J	.	.	4b\	-va-	4B/	4f#\
8BB/	.	.	8d#/	.	.	8BB/	-va-	.	.	.	.	8d#\	-va-	.	.	.	.	.
8D#/J	.	.	8f#/J	.	8aa\	8D#/	-vi	.	8B\	-vi	.	8f#\	-vi	.	8b\	-vi	8B/	8f#\
!	!	!	!	!	!	!	!	!	!	!	!	!	!	!	!	!	!LO:LB:g=original	!
=16	=16	=16	=16	=16	=16	=16	=16	=16	=16	=16	=16	=16	=16	=16	=16	=16	=16	=16
8E\L	.	.	8g#/L	.	16.gg#\LL	8.E\	o-	.	8.B\	o-	.	8.g#\	o-	.	8.ee\	o-	8g#\L	8b\L
.	.	.	.	.	32bb\K	.	.	.	.	.	.	.	.	.	.	.	.	.
8F#\	.	.	8a/	.	16.dd#\	.	.	.	.	.	.	.	.	.	.	.	8f#\	8a\
.	.	.	.	.	.	16F#\	-cu-	.	16A/	-cu-	.	16f#\	-cu-	.	16dd#\	-cu-	.	.
.	.	.	.	.	32ff#\JJk	.	.	.	.	.	.	.	.	.	.	.	.	.
!	!	!	!	!	!LO:TX:a:t=P:problem:mixed beam	!	!	!	!	!	!	!	!	!	!	!	!	!
8G#\	.	.	8b/	.	16.ee\LL	8G#\	-los	.	8G#/	-los	.	8e\	-los	.	8ee\	-los	8e\	8g#\
.	.	.	.	.	32e/K	.	.	.	.	.	.	.	.	.	.	.	.	.
8E\J	.	.	8g#/J	.	16.g#/	8r	.	.	8r	.	.	8r	.	.	8r	.	8e\J	8g#\J
.	.	.	.	.	32b/JJk	.	.	.	.	.	.	.	.	.	.	.	.	.
!	!	!	!	!	!	!	!	!	!	!	!	!LO:LB:g=original	!	!	!	!	!	!
=17	=17	=17	=17	=17	=17	=17	=17	=17	=17	=17	=17	=17	=17	=17	=17	=17	=17	=17
8D#/L	.	.	8f#/L	.	8b\	8D#/L	me-	.	8B\	me-	.	8f#\L	me-	.	8b\	me-	8B/	8f#\
8C#/	.	.	8e/	.	4b\	8C#/J	.	.	4B\	-os	.	8e\J	.	.	4b\	-os	4B/	4f#\
8BB/	.	.	8d#/	.	.	8BB/	-os	.	.	.	.	8d#\	-os	.	.	.	.	.
8D#/J	.	.	8f#/J	.	8aa\	8D#/	in	.	8B\	in	.	8f#\	in	.	8b\	in	8B/	8f#\
!	!	!	!	!	!	!LO:LB:g=original	!	!	!LO:LB:g=original	!	!	!	!	!	!	!	!	!
=18	=18	=18	=18	=18	=18	=18	=18	=18	=18	=18	=18	=18	=18	=18	=18	=18	=18	=18
!	!	!	!LO:TX:a:t=P:problem:mixed beam	!	!	!LO:SIC:s=mon-	!	!	!	!	!	!	!	!	!	!	!	!
8E\L	.	.	8g#/L	.	16.gg#\LL	8E\L	men-	.	8B\L	mon-	.	8g#\L	mon-	.	8ee\L	mon-	4e\	4g#\
.	.	.	.	.	32bb\K	.	.	.	.	.	.	.	.	.	.	.	.	.
8F#\	.	.	8a/	.	16.dd#\	8F#\J	.	.	8A\J	.	.	8f#\J	.	.	8dd#\J	.	.	.
.	.	.	.	.	32ff#\JJk	.	.	.	.	.	.	.	.	.	.	.	.	.
8G#\	.	.	8b/	.	8ee\L	8G#\	-tes	.	8G#/	-tes	.	8e\	-tes	.	8ee\	-tes	8r	8r
8E\J	.	.	8gg#\J	.	8bb\J	16E\	un-	.	16B\	un-	.	16b\	un-	.	16gg#\	un-	8g#\	8b\
.	.	.	.	.	.	16E\	-de	.	16e\	-de	.	16b\	-de	.	16gg#\	-de	.	.
!	!	!	!	!	!	!	!	!	!	!	!	!	!	!	!LO:LB:g=original	!	!	!
=19	=19	=19	=19	=19	=19	=19	=19	=19	=19	=19	=19	=19	=19	=19	=19	=19	=19	=19
!LO:TX:a:t=P:problem:przed "3" niezidentyfikowany znak	!	!	!	!	!	!	!	!	!	!	!	!	!	!	!	!	!	!
4F#\	8 3	.	8gg#\	.	8bb\	8F#\	mi-	.	8c#\	mi-	.	8b\L	mi-	.	8gg#\L	mi-	8g#\L	8b\L
.	.	.	4ff#\	.	4aa\	8F#\	-hi	.	8c#\	-hi	.	8a\J	.	.	8ff#\J	.	8f#\J	8a\J
8r	.	.	.	.	.	8r	.	.	8r	.	.	8a\	-hi	.	8ff#\	-hi	4f#\	4a\
!LO:SIC:v=nad nutą symbol podobny do znaku zapytania	!	!	!	!	!	!	!	!	!	!	!	!	!	!	!	!	!	!
8D#\	.	.	8ff#\	.	8aa\	8D#\	au-	.	8B\	au-	.	8a\	au-	.	8ff#\	au-	.	.
!	!	!	!	!	!LO:LB:g=original	!	!	!	!	!	!	!	!	!	!	!	!	!LO:LB:g=original
=20	=20	=20	=20	=20	=20	=20	=20	=20	=20	=20	=20	=20	=20	=20	=20	=20	=20	=20
!LO:TX:a:t=P:problem:przed "3" niezidentyfikowany znak	!	!	!	!	!	!	!	!	!	!	!	!	!	!	!	!	!	!
4E\	X 3	.	8ff#\	.	8aa\	8.E\	-xi-	.	8.B\	-xi-	.	8.a\	-xi-	.	8.ff#\	-xi-	8f#\L	8a\L
.	.	.	4ee\	.	4gg#\	.	.	.	.	.	.	.	.	.	.	.	8e\J	8g#\J
.	.	.	.	.	.	16E\	-li-	.	16B\	-li-	.	16g#\	-li-	.	16ee\	-li-	.	.
8r	.	.	.	.	.	8E\	-um	.	8B\	-um	.	4g#\	-um	.	8ee\	-um	4e\	4g#\
8E\	.	.	16ee\LL	.	16gg#\LL	8r	.	.	8r	.	.	.	.	.	8r	.	.	.
.	.	.	16ff#\JJ	.	16aa\JJ	.	.	.	.	.	.	.	.	.	.	.	.	.
=21	=21	=21	=21	=21	=21	=21	=21	=21	=21	=21	=21	=21	=21	=21	=21	=21	=21	=21
!LO:TX:a:t=P:problem:mixed beam	!	!	!	!	!	!	!	!	!	!	!	!	!	!	!	!	!	!
8B\L	.	.	8ee\L	.	8gg#\L	8B\	ve-	.	8B\	ve-	.	8g#\	ve-	.	16ee\	ve-	8e\L	8g#\L
.	.	.	.	.	.	.	.	.	.	.	.	.	.	.	16dd#\	-ni-	.	.
8BB/J	.	.	8dd#\J	.	8ff#\J	16BB/	-ni-	.	16B\	-ni-	.	16f#\	-ni-	.	8dd#\	-et	8B\J	8f#\J
.	.	.	.	.	.	16BB/	-et	.	16B\	-et	.	16f#\	-et	.	.	.	.	.
4r	.	.	4r	.	4r	4r	.	.	4r	.	.	4r	.	.	4r	.	4r	4r
!	!	!	!LO:LB:g=original	!	!	!	!	!	!	!	!	!	!	!	!	!	!	!
=22	=22	=22	=22	=22	=22	=22	=22	=22	=22	=22	=22	=22	=22	=22	=22	=22	=22	=22
!LO:TX:a:t=P:problem:mixed beam	!	!	!	!LO:DY:a	!	!	!	!LO:N:vis=00	!	!	!	!	!	!	!LO:TX:a:i:t=Solo	!	!	!
!	!	!	!	!LO:HP:a:i:t=pia:	!	!LO:N:vis=00	!	!	!	!	!	!	!	!	!	!	!LO:N:vis=00	!LO:N:vis=00
8B\L	.	.	8dd#\	p	8bb\	0r	.	.	0r	.	.	8b\	Le-	.	8dd#\	Le-	0r	0r
8BB/	.	.	4dd#\	.	4bb\	.	.	.	.	.	.	4b\	-va-	.	4dd#\	-va-	.	.
8D#/	.	.	.	.	.	.	.	.	.	.	.	.	.	.	.	.	.	.
*	*	*	*	*	*	*	*	*	*	*	*	*Xtuplet	*	*	*Xtuplet	*	*	*
!	!	!	!LO:TUP:a:problem:klamra łukowa	!	!	!	!	!	!	!	!	!	!	!	!	!	!	!
8F#/J	X #	.	24ee\LL	.	24ccc#\LL	.	.	.	.	.	.	24cc#\LL	-vi	.	24ee\LL	-vi	.	.
.	.	.	24dd#\	.	24bb\	.	.	.	.	.	.	24b\	.	.	24dd#\	.	.	.
.	.	.	24cc#\JJ	.	24aa#X\JJ	.	.	.	.	.	.	24a#X\JJ	.	.	24cc#\JJ	.	.	.
!	!	!	!	!	!	!	!	!	!	!	!	!LO:LB:g=original	!	!	!	!	!	!
=23	=23	=23	=23	=23	=23	=23	=23	=23	=23	=23	=23	=23	=23	=23	=23	=23	=23	=23
!LO:TX:a:t=P:problem:mixed beam	!	!	!	!	!	!	!	!	!	!	!	!	!	!	!	!	!	!
8B\L	.	.	8dd#\	.	16bb\LL	.	.	.	.	.	.	8.b\	o-	.	8.cc#\	o-	.	.
.	.	.	.	.	16ff#\JJ	.	.	.	.	.	.	.	.	.	.	.	.	.
8BB/	.	.	4dd#\	.	4bb\	.	.	.	.	.	.	.	.	.	.	.	.	.
.	.	.	.	.	.	.	.	.	.	.	.	16b\	-cu-	.	16dd#\	-cu-	.	.
!	!	!	!	!	!	!	!	!	!	!	!	!LO:SIC:s=8b	!	!	!	!	!	!
!	!	!	!	!	!	!	!	!	!	!	!	!LO:N:vis=16	!	!	!	!	!	!
8D#/	.	.	.	.	.	.	.	.	.	.	.	8b\	-los	.	8dd#\	-los	.	.
.	.	.	.	.	.	.	.	.	.	.	.	.	.	.	.	.	.	.
*	*	*	*Xtuplet	*	*	*	*	*	*	*	*	*	*	*	*	*	*	*
8F#/J	X #	.	24ee\LL	.	24ccc#\LL	.	.	.	.	.	.	24cc#\LL	me-	.	24ee\LL	me-	.	.
.	.	.	24dd#\	.	24bb\	.	.	.	.	.	.	24b\	.	.	24dd#\	.	.	.
!	!	!	!	!	!LO:SIC:s=24aa#	!	!	!	!	!	!	!	!	!	!	!	!	!
.	.	.	24cc#\JJ	.	24aa\JJ	.	.	.	.	.	.	24a#X\JJ	.	.	24cc#\JJ	.	.	.
!LO:LB:g=original	!	!	!	!	!	!	!	!	!	!	!	!	!	!	!	!	!	!
=24	=24	=24	=24	=24	=24	=24	=24	=24	=24	=24	=24	=24	=24	=24	=24	=24	=24	=24
!LO:TX:a:t=P:problem:mixed beam	!	!	!	!	!	!	!	!	!	!	!	!	!	!	!	!	!	!
8B\L	.	.	8dd#\	.	16bb\LL	.	.	.	.	.	.	8b\	-os	.	8dd#\	-os	.	.
.	.	.	.	.	16ff#\JJ	.	.	.	.	.	.	.	.	.	.	.	.	.
8BB/	.	.	4dd#\	.	4bb\	.	.	.	.	.	.	4b\	in-	.	4dd#\	in	.	.
8D#/	.	.	.	.	.	.	.	.	.	.	.	.	.	.	.	.	.	.
8F#/J	X #	.	24ee\LL	.	24ccc#\LL	.	.	.	.	.	.	24cc#\LL	.	.	24ee\LL	.	.	.
.	.	.	24dd#\	.	24bb\	.	.	.	.	.	.	24b\	.	.	24dd#\	.	.	.
.	.	.	24cc#\JJ	.	24aa#X\JJ	.	.	.	.	.	.	24a#X\JJ	.	.	24cc#\JJ	.	.	.
=25	=25	=25	=25	=25	=25	=25	=25	=25	=25	=25	=25	=25	=25	=25	=25	=25	=25	=25
!LO:TX:a:t=P:problem:mixed beam	!	!	!LO:TX:a:t=P:problem:mixed beam	!	!	!	!	!	!	!	!	!	!	!	!	!	!	!
8B\L	.	.	8dd#\L	.	8bb\L	.	.	.	.	.	.	8b\	mon-	.	8dd#\	mon-	.	.
8BB/J	.	.	16d#/L	.	16b\L	.	.	.	.	.	.	8b\	-tes	.	8dd#\	-tes	.	.
.	.	.	16e/JJ	.	16cc#\JJ	.	.	.	.	.	.	.	.	.	.	.	.	.
4r	.	.	4d#/	.	4b\	.	.	.	.	.	.	4r	.	.	4r	.	.	.
!	!	!	!	!	!	!	!	!	!	!	!	!	!	!	!LO:LB:g=original	!	!	!
=26	=26	=26	=26	=26	=26	=26	=26	=26	=26	=26	=26	=26	=26	=26	=26	=26	=26	=26
*	*	*	*	*	*	*	*	*	*	*	*	*	*	*	*	*	*2\right	*
8D#\L	9 5	.	8ff#\L	.	8aa\L	8D#\	un-	.	8B\	un-	.	8an\	un-	.	8ff#\	un-	2f#\	2a\
8D#\	.	.	16b\L	.	16b\L	8D#\	-de	.	8B\	-de	.	8a\	-de	.	8ff#\	-de	.	.
.	.	.	16cc#\JJ	.	16cc#\JJ	.	.	.	.	.	.	.	.	.	.	.	.	.
8D#\	.	.	8b\L	.	8b\L	8r	.	.	8r	.	.	8r	.	.	8r	.	.	.
*	*	*	*	*	*	*	*ij	*	*	*ij	*	*	*	*	*	*ij	*	*
8D#\J	.	.	8ff#\J	.	8aa\J	16D#\	un-	.	16B\	un-	.	16a\	un-	.	16ff#\	un-	.	.
.	.	.	.	.	.	16D#\	-de	.	16B\	-de	.	16a\	-de	.	16ff#\	-de	.	.
*	*	*	*	*	*	*	*Xij	*	*	*Xij	*	*	*	*	*	*Xij	*	*
=27	=27	=27	=27	=27	=27	=27	=27	=27	=27	=27	=27	=27	=27	=27	=27	=27	=27	=27
8E\L	X 6	.	16ff#\LL	.	16aa\LL	8E\	mi-	.	8B\	mi-	.	16a\LL	mi-	.	16ff#\LL	mi-	16f#\LL	16a\LL
.	.	.	16ee\JJ	.	16gg#\JJ	.	.	.	.	.	.	16g#\JJ	.	.	16ee\JJ	.	16e\JJ	16g#\JJ
!LO:TX:a:t=P:problem:niezidentyfikowany znak w cyfrowaniu. Przyjęto krzyżyk	!	!	!	!	!	!	!	!	!	!	!	!	!	!	!	!	!	!
8E\	X #	.	4ee\	.	4gg#\	8E\	-hi	.	8B\	-hi	.	8g#\	-hi	.	8ee\	-hi	4e\	4g#\
8E\	.	.	.	.	.	8r	.	.	8r	.	.	8r	.	.	8r	.	.	.
8E\J	.	.	8ee\	.	8gg#\	8E\	au-	.	8e\	au-	.	8g#\	au-	.	8ee\	au-	8e\	8g#\
!	!	!	!	!	!	!LO:LB:g=original	!	!	!LO:LB:g=original	!	!	!	!	!	!	!	!	!
=28	=28	=28	=28	=28	=28	=28	=28	=28	=28	=28	=28	=28	=28	=28	=28	=28	=28	=28
8E\L	X 6	.	8cc#\	.	8ee\	4.E\	-xi-	.	4.c#\	-xi-	.	8.g#\	-xi-	.	4.ee\	-xi-	4e\	4g#\
.	.	.	.	.	.	.	.	.	.	.	.	.	.	.	.	.	.	.
8E\	.	.	4cc#\	.	4ee\	.	.	.	.	.	.	.	.	.	.	.	.	.
.	.	.	.	.	.	.	.	.	.	.	.	16g#	-li-	.	.	.	.	.
8E\	.	.	.	.	.	.	.	.	.	.	.	8g#	-um	.	.	.	4r	4r
8E\J	.	.	8b\	.	8ee\	16E\	-li-	.	16B\	-li-	.	8r\	.	.	16dd#\	-li-	.	.
.	.	.	.	.	.	16E\	-um	.	16B\	-um	.	.	.	.	16dd#\	-um	.	.
!	!	!	!	!	!	!	!	!	!	!	!	!LO:LB:g=original	!	!	!	!	!	!
=29	=29	=29	=29	=29	=29	=29	=29	=29	=29	=29	=29	=29	=29	=29	=29	=29	=29	=29
8F#\L	X 4	.	8b/L	.	8dd#\L	8F#\	ve-	.	8B\	ve-	.	8f#\	ve-	.	16dd#\	ve-	8f#\L	8f#\L
.	.	.	.	.	.	.	.	.	.	.	.	.	.	.	16cc#\	-ni-	.	.
8F#\J	X #	.	8a#X/J	.	8cc#\J	16F#\	-ni-	.	16A#X/	-ni-	.	16f#\	-ni-	.	8cc#\	-et	16f#\L	16f#\L
.	.	.	.	.	.	16F#\	-et	.	16A#/	-et	.	16f#\	-et	.	.	.	16f#\JJ	16f#\JJ
4r	.	.	8d#/L	.	16.b/LL	4r	.	.	4r	.	.	4r	.	.	4r	.	4f#\	4f#\
.	.	.	.	.	32f#/K	.	.	.	.	.	.	.	.	.	.	.	.	.
.	.	.	8f#/J	.	16.cc#/	.	.	.	.	.	.	.	.	.	.	.	.	.
.	.	.	.	.	32f#/JJk	.	.	.	.	.	.	.	.	.	.	.	.	.
!	!	!	!	!	!LO:LB:g=original	!	!	!	!	!	!	!	!	!	!	!	!	!
=30	=30	=30	=30	=30	=30	=30	=30	=30	=30	=30	=30	=30	=30	=30	=30	=30	=30	=30
!LO:TX:a:t=P:problem:mixed beam	!	!	!	!	!	!	!	!	!	!	!	!	!	!	!LO:TX:a:i:t=Solo	!	!	!
!LO:TX:a:t=P:problem:repetycja t. 30-31	!	!	!	!	!	!	!	!	!	!	!	!	!	!	!	!	!	!
8B\L	X #	.	8b\	.	8dd#\	2r	.	.	2r	.	.	8b\	Le-	.	8dd#\	Le-	2f#\	2f#\
8BB/	.	.	4b\	.	4dd#\	.	.	.	.	.	.	4b\	-va-	.	4dd#\	-va-	.	.
8D#/	.	.	.	.	.	.	.	.	.	.	.	.	.	.	.	.	.	.
!	!	!	!	!	!	!	!	!	!	!	!	!LO:TUP:a:problem:klamra łukowa	!	!	!	!	!	!
*	*	*	*tuplet	*	*	*	*	*	*	*	*	*	*	*	*	*	*	*
!	!	!	!LO:TUP:a:problem:klamra łukowa	!	!	!	!	!	!	!	!	!	!	!	!	!	!	!
8F#/J	.	.	24cc#\LL	.	24ee\LL	.	.	.	.	.	.	24cc#\LL	-vi	.	24ee\LL	-vi	.	.
.	.	.	24b\	.	24dd#\	.	.	.	.	.	.	24b\	.	.	24dd#\	.	.	.
.	.	.	24a#X\JJ	.	24cc#\JJ	.	.	.	.	.	.	24a#X\JJ	.	.	24cc#\JJ	.	.	.
!	!	!	!LO:LB:g=original	!	!	!	!	!	!	!	!	!	!	!	!	!	!	!
=31	=31	=31	=31	=31	=31	=31	=31	=31	=31	=31	=31	=31	=31	=31	=31	=31	=31	=31
!LO:TX:a:t=P:problem:mixed beam	!	!	!	!	!	!	!	!	!	!	!	!	!	!	!	!	!	!
8B\L	X #	.	8b\	.	8dd#\	8B\	Le-	.	8d#X\	Le-	.	8.b\	o-	.	8.dd#\	o-	2f#\	2f#\
8BB/	.	.	4dd#\	.	4bb\	4B\	-va-	.	4d#\	-va-	.	.	.	.	.	.	.	.
.	.	.	.	.	.	.	.	.	.	.	.	16b\	-cu-	.	16dd#\	-cu-	.	.
8D#/	.	.	.	.	.	.	.	.	.	.	.	8b\	-los	.	8dd#\	-los	.	.
*	*	*	*	*	*	*Xtuplet	*	*	*	*	*	*	*	*	*	*	*	*
!	!	!	!LO:TUP:a:problem:klamra łukowa	!	!	!	!	!	!LO:TUP:a:problem:klamra łukowa	!	!	!	!	!	!	!	!	!
8F#/J	X #	.	24ee\LL	.	24ccc#\LL	24c#\LL	-vi-	.	24e\LL	-vi	.	8r	.	.	8r	.	.	.
.	.	.	24dd#\	.	24bb\	24B\	.	.	24d#\	.	.	.	.	.	.	.	.	.
.	.	.	24cc#\JJ	.	24aa#X\JJ	24A#X\JJ	.	.	24c#\JJ	.	.	.	.	.	.	.	.	.
!	!	!	!	!	!	!	!	!	!	!	!	!	!	!	!LO:LB:g=original	!	!LO:LB:g=original	!
=32	=32	=32	=32	=32	=32	=32	=32	=32	=32	=32	=32	=32	=32	=32	=32	=32	=32	=32
!LO:TX:a:t=P:problem:mixed beam	!	!	!	!	!	!	!	!	!	!	!	!	!	!	!	!	!	!
8B\L	X #	.	8b\	.	8bb\	8.B\	o-	.	8.d#\	o-	.	8b\	me-	.	8dd#\	me-	2f#\	2f#\
8BB/	.	.	4b\	.	4dd#\	.	.	.	.	.	.	4b\	-os	.	4dd#\	-os	.	.
.	.	.	.	.	.	16B\	-cu-	.	16d#\	-cu-	.	.	.	.	.	.	.	.
8D#/	.	.	.	.	.	8B\	-los	.	8d#\	-los	.	.	.	.	.	.	.	.
!	!	!	!LO:TUP:a:problem:klamra łukowa	!	!LO:TUP:a:problem:klamra łukowa	!	!	!	!	!	!	!	!	!	!	!	!	!
8F#/J	.	.	24cc#\LL	.	24ee\LL	8r	.	.	8r	.	.	24cc#\LL	in-	.	24ee\LL	in	.	.
.	.	.	24b\	.	24dd#\	.	.	.	.	.	.	24b\	.	.	24dd#\	.	.	.
.	.	.	24a#X\JJ	.	24cc#\JJ	.	.	.	.	.	.	24a#X\JJ	.	.	24cc#\JJ	.	.	.
=33	=33	=33	=33	=33	=33	=33	=33	=33	=33	=33	=33	=33	=33	=33	=33	=33	=33	=33
!LO:TX:a:t=P:problem:mixed beam	!	!	!	!	!	!	!	!	!	!	!	!	!	!	!	!	!	!
8B\L	X #	.	8b\	.	8dd#\	8B\	me-	.	8d#\	me-	.	8b\	mon-	.	8dd#\	mon-	2f#\	2f#\
8BB/	.	.	4dd#\	.	4bb\	4B\	-os	.	4d#\	-os	.	8b\	-tes	.	8dd#\	-tes	.	.
8D#/	.	.	.	.	.	.	.	.	.	.	.	8r	.	.	8r	.	.	.
!	!	!	!LO:TUP:a:problem:klamra łukowa	!	!	!	!	!	!LO:TUP:a:problem:klamra łukowa	!	!	!	!	!	!	!	!	!
8F#/J	X #	.	24ee\LL	.	24ccc#\LL	24c#\LL	in-	.	24e\LL	in	.	8cc#\	in	.	8ff#\	in	.	.
.	.	.	24dd#\	.	24bb\	24B\	.	.	24d#\	.	.	.	.	.	.	.	.	.
!	!	!	!	!	!LO:SIC:s=24aa#	!	!	!	!	!	!	!	!	!	!	!	!	!
.	.	.	24cc#\JJ	.	24aa\JJ	24A#X\JJ	.	.	24c#\JJ	.	.	.	.	.	.	.	.	.
=34	=34	=34	=34	=34	=34	=34	=34	=34	=34	=34	=34	=34	=34	=34	=34	=34	=34	=34
!LO:TX:a:t=P:problem:mixed beam	!	!	!	!	!	!	!	!	!	!	!	!	!	!	!	!	!	!
8B\L	.	.	4dd#\	.	4bb\	8B\	mon-	.	8d#\	mon-	.	8b\	mon-	.	8ff#\	mon-	4f#\	4f#\
8BB/J	.	.	.	.	.	8B\	-tes	.	8d#\	-tes	.	8b\	-tes	.	8ff#\	-tes	.	.
!	!	!	!LO:TUP:a:problem:klamra łukowa	!	!	!	!	!	!	!	!	!	!	!	!	!	!	!
4r	.	.	24dd#\LL	.	24bb\LL	4r	.	.	4r	.	.	4r	.	.	4r	.	4r	4r
.	.	.	24b\	.	24b\	.	.	.	.	.	.	.	.	.	.	.	.	.
.	.	.	24cc#\JJ	.	24cc#\JJ	.	.	.	.	.	.	.	.	.	.	.	.	.
!	!	!	!LO:TUP:a:problem:klamra łukowa	!	!LO:TUP:a:problem:klamra łukowa	!	!	!	!	!	!	!	!	!	!	!	!	!
.	.	.	24b\LL	.	24dd#\LL	.	.	.	.	.	.	.	.	.	.	.	.	.
.	.	.	24cc#\	.	24ee\	.	.	.	.	.	.	.	.	.	.	.	.	.
.	.	.	24dd#\JJ	.	24ff#\JJ	.	.	.	.	.	.	.	.	.	.	.	.	.
!	!	!	!	!	!	!LO:LB:g=original	!	!	!	!	!	!LO:LB:g=original	!	!	!	!	!	!
=35	=35	=35	=35	=35	=35	=35	=35	=35	=35	=35	=35	=35	=35	=35	=35	=35	=35	=35
8BB/L	.	.	4e/ 4b 4gg#	.	4e/ 4b 4gg#	8B\	un-	.	8e\	un-	.	8b\	un-	.	8gg#\	un-	2B/	2B/
8BB/	.	.	.	.	.	8B\	-de	.	8e\	-de	.	8b\	-de	.	8gg#\	-de	.	.
!	!	!	!LO:TUP:b	!	!LO:TX:a:t=P:problem:mixed beam	!	!	!	!	!	!	!	!	!	!	!	!	!
!	!	!	!LO:TUP:b:problem:klamra łukowa	!	!LO:TUP:a:problem:klamra łukowa, kropka zamiast numeru	!	!	!	!	!	!	!	!	!	!	!	!	!
8BB/	.	.	24e/LL	.	24e/LL	8r	.	.	8r	.	.	8r	.	.	8r	.	.	.
.	.	.	24ee/	.	24gg#\	.	.	.	.	.	.	.	.	.	.	.	.	.
.	.	.	24ff#/JJ	.	24aa\JJ	.	.	.	.	.	.	.	.	.	.	.	.	.
*	*	*	*	*	*	*	*ij	*	*	*ij	*	*	*ij	*	*	*ij	*	*
!	!	!	!	!	!	!	!	!	!LO:LB:g=original	!	!	!	!	!	!	!	!	!
!	!	!	!LO:TUP:a:problem:klamra łukowa	!	!LO:TUP:a:problem:klamra łukowa, kropka zamiast numeru	!	!	!	!	!	!	!	!	!	!	!	!	!
8BB/J	.	.	24gg#\LL	.	24bb\LL	16B\	un-	.	16e\	un-	.	16b\	un-	.	16gg#\	un-	.	.
.	.	.	24ff#\	.	24aa\	.	.	.	.	.	.	.	.	.	.	.	.	.
.	.	.	.	.	.	16B\	-de	.	16e\	-de	.	16b\	-de	.	16gg#\	-de	.	.
*	*	*	*	*	*	*	*Xij	*	*	*Xij	*	*	*Xij	*	*	*Xij	*	*
.	.	.	24ee\JJ	.	24gg#\JJ	.	.	.	.	.	.	.	.	.	.	.	.	.
=36	=36	=36	=36	=36	=36	=36	=36	=36	=36	=36	=36	=36	=36	=36	=36	=36	=36	=36
!LO:TX:a:t=P:problem:mixed beam	!	!	!	!	!	!	!	!	!	!	!	!	!	!	!	!	!	!
8BB/L	.	.	4dd#\	.	4b/ 4ff#	8B\	mi-	.	8d#\	mi-	.	8b\	mi-	.	8ff#\	mi-	4B/	4B/
8B\	.	.	.	.	.	8B\	-hi	.	8d#\	-hi	.	8b\	-hi	.	8ff#\	-hi	.	.
*	*	*	*	*	*tuplet	*	*	*	*	*	*	*	*	*	*	*	*	*
!	!	!	!LO:TUP:b	!	!	!	!	!	!	!	!	!	!	!	!	!	!	!
!	!	!	!LO:TUP:b:problem:klamra łukowa	!	!LO:TUP:b:problem:klamra łukowa	!	!	!	!	!	!	!	!	!	!	!	!	!
8A#X\	.	.	24f#/LL	.	24f#/LL	8r	.	.	8r	.	.	8r	.	.	8r	.	4r	4r
.	.	.	24a#X/	.	24cc#/	.	.	.	.	.	.	.	.	.	.	.	.	.
.	.	.	24b/JJ	.	24dd#/JJ	.	.	.	.	.	.	.	.	.	.	.	.	.
*	*	*	*	*	*Xtuplet	*	*	*	*	*	*	*	*	*	*	*	*	*
!	!	!	!LO:TUP:a:problem:klamra łukowa	!	!LO:TUP:b:problem:klamra łukowa, kreska zamiast numeru	!	!	!	!	!	!	!	!	!	!	!	!	!
8F#\J	.	.	24cc#\LL	.	24ee/LL	8F#\	au-	.	8c#\	au-	.	8a#X\	au-	.	8ee\	au-	.	.
.	.	.	24b\	.	24dd#/	.	.	.	.	.	.	.	.	.	.	.	.	.
.	.	.	24a#X\JJ	.	24cc#/JJ	.	.	.	.	.	.	.	.	.	.	.	.	.
=37	=37	=37	=37	=37	=37	=37	=37	=37	=37	=37	=37	=37	=37	=37	=37	=37	=37	=37
!LO:TX:a:t=P:problem:mixed beam	!	!	!	!	!	!	!	!	!	!	!	!	!	!	!	!	!	!
8G#\L	X 3	.	8b/L	.	8dd#\L	8G#\	-xi-	.	8B\	-xi-	.	8b\	-xi-	.	8dd#\	-xi-	4r	4r
!	!	!	!LO:TUP:b	!	!	!	!	!	!	!	!	!	!	!	!	!	!	!
!	!	!	!LO:TUP:b:problem:klamra łukowa	!	!	!	!	!	!	!	!	!	!	!	!	!	!	!
8E\	X 6	.	24g#/L	.	24ee\L	16E\	-li-	.	16e\	-li-	.	16f#\	-li-	.	16ee\	-li-	.	.
.	.	.	24f#/	.	24dd#\	.	.	.	.	.	.	.	.	.	.	.	.	.
.	.	.	.	.	.	16E\	-um	.	16g#\	-um	.	16e\	-um	.	16cc#\	-um	.	.
.	.	.	24e/JJ	.	24cc#\JJ	.	.	.	.	.	.	.	.	.	.	.	.	.
8F#\	X 4	.	8d#/L	.	8b/L	8.F#\	ve-	.	8.f#\	ve-	.	8.d#\	ve-	.	8.b\	ve-	8f#\L	8b\L
8FF#/J	X 7	.	8c#/J	.	8a#X/J	.	.	.	.	.	.	.	.	.	.	.	8f#\J	8a#X\J
.	.	.	.	.	.	16F#\	-ni-	.	16f#\	-ni-	.	16c#\	-ni-	.	16a#X\	-ni-	.	.
!	!	!	!	!	!	!	!	!	!	!	!	!	!	!	!LO:LB:g=original	!	!	!
=38	=38	=38	=38	=38	=38	=38	=38	=38	=38	=38	=38	=38	=38	=38	=38	=38	=38	=38
8BB\L	.	.	8e/	.	8b\	4BB/	-et	.	4f#\	-et	.	4B/	-et	.	4b\	-et	4f#\	4b\
8BB\	.	.	4dd#\	.	4bb\	.	.	.	.	.	.	.	.	.	.	.	.	.
8D#\	.	.	.	.	.	4r	.	.	4r	.	.	4r	.	.	4r	.	8r	8r
*	*	*	*Xtuplet	*	*	*	*	*	*	*	*	*	*	*	*	*	*	*
!	!	!	!LO:TUP:a:problem:klamra łukowa	!	!	!	!	!	!	!	!	!	!	!	!	!	!	!
8F#\J	.	.	24ee\LL	.	24ccc#\LL	.	.	.	.	.	.	.	.	.	.	.	8f#\	8f#\
.	.	.	24dd#\	.	24bb\	.	.	.	.	.	.	.	.	.	.	.	.	.
.	.	.	24cc#\JJ	.	24aa\JJ	.	.	.	.	.	.	.	.	.	.	.	.	.
!LO:LB:g=original	!	!	!LO:LB:g=original	!	!	!	!	!	!	!	!	!	!	!	!	!	!	!
=39	=39	=39	=39	=39	=39	=39	=39	=39	=39	=39	=39	=39	=39	=39	=39	=39	=39	=39
!LO:TX:a:t=P:problem:mixed beam	!	!	!	!	!	!	!	!	!	!	!	!	!	!	!	!	!	!
!	!	!	!	!	!	!LO:N:vis=0	!	!	!LO:N:vis=0	!	!	!LO:N:vis=0	!	!	!LO:N:vis=0	!	!	!
8B\L	.	.	8dd#\	.	8bb\	1r	.	.	1r	.	.	1r	.	.	1r	.	4f#\	4f#\
8BB/	.	.	4b\	.	4dd#\	.	.	.	.	.	.	.	.	.	.	.	.	.
8D#/	.	.	.	.	.	.	.	.	.	.	.	.	.	.	.	.	8r	8r
*	*	*	*tuplet	*	*	*	*	*	*	*	*	*	*	*	*	*	*	*
!	!	!	!LO:TUP:a:problem:klamra łukowa	!	!	!	!	!	!	!	!	!	!	!	!	!	!	!
8F#/J	.	.	24cc#\LL	.	24ee\LL	.	.	.	.	.	.	.	.	.	.	.	8f#\	8f#\
.	.	.	24b\	.	24dd#\	.	.	.	.	.	.	.	.	.	.	.	.	.
.	.	.	24a#X\JJ	.	24cc#\JJ	.	.	.	.	.	.	.	.	.	.	.	.	.
!	!	!	!	!	!LO:LB:g=original	!	!	!	!	!	!	!	!	!	!	!	!	!LO:LB:g=original
=40	=40	=40	=40	=40	=40	=40	=40	=40	=40	=40	=40	=40	=40	=40	=40	=40	=40	=40
!LO:TX:a:t=P:problem:mixed beam	!	!	!	!	!	!	!	!	!	!	!	!	!	!	!	!	!	!
8B\L	.	.	8b\	.	8dd#\	.	.	.	.	.	.	.	.	.	.	.	4f#\	4f#\
8BB/	.	.	4d#/	.	4b\	.	.	.	.	.	.	.	.	.	.	.	.	.
8D#/	.	.	.	.	.	.	.	.	.	.	.	.	.	.	.	.	8r	8r
!	!	!	!LO:TUP:b	!	!	!	!	!	!	!	!	!	!	!	!	!	!	!
!	!	!	!LO:TUP:b:problem:klamra łukowa	!	!LO:TUP:b:problem:klamra łukowa	!	!	!	!	!	!	!	!	!	!	!	!	!
8F#/J	.	.	24e/LL	.	24cc#\LL	.	.	.	.	.	.	.	.	.	.	.	8f#\	8f#\
.	.	.	24d#/	.	24b\	.	.	.	.	.	.	.	.	.	.	.	.	.
.	.	.	24c#/JJ	.	24a#X\JJ	.	.	.	.	.	.	.	.	.	.	.	.	.
=41	=41	=41	=41	=41	=41	=41	=41	=41	=41	=41	=41	=41	=41	=41	=41	=41	=41	=41
4BB/	.	.	8d#/L	.	8b/L	2r	.	.	2r	.	.	2r	.	.	2r	.	4B/	4f#\
.	.	.	8f#/	.	8f#/J	.	.	.	.	.	.	.	.	.	.	.	.	.
4r	.	.	8B/J	.	8B/	.	.	.	.	.	.	.	.	.	.	.	4r	4r
.	.	.	8r	.	8r	.	.	.	.	.	.	.	.	.	.	.	.	.
=42	=42	=42	=42	=42	=42	=42	=42	=42	=42	=42	=42	=42	=42	=42	=42	=42	=42	=42
8E\L	.	.	8g#/	.	8b\	8E\	Le-	.	8e\	Le-	.	8g#\	Le-	.	8b\	Le-	8g#\	8b\
8E\	.	.	4g#/	.	4b\	4E\	-va-	.	4e\	-va-	.	4g#\	-va-	.	4b\	-va-	4g#\	4b\
8E\	.	.	.	.	.	.	.	.	.	.	.	.	.	.	.	.	.	.
8E\J	6 4	.	16a/LL	.	16cc#\LL	8E\	-vi	.	8e\	-vi	.	8g#\	-vi	.	16cc#\LL	-vi	16a\LL	16cc#\LL
.	.	.	16f#/JJ	.	16b\JJ	.	.	.	.	.	.	.	.	.	16a\JJ	.	16g#\JJ	16b\JJ
=43	=43	=43	=43	=43	=43	=43	=43	=43	=43	=43	=43	=43	=43	=43	=43	=43	=43	=43
8E\L	X 3	.	8g#/	.	8b\	8.E\	o-	.	8.e\	o-	.	8.g#\	o-	.	8b\	o-	4g#\	4b\
*	*	*	*	*	*tuplet	*	*	*	*	*	*	*	*	*	*	*	*	*
8E\	.	.	4g#/	.	24ee\LL	.	.	.	.	.	.	.	.	.	16ee\LL	-cu-	.	.
.	.	.	.	.	24dd#\	.	.	.	.	.	.	.	.	.	.	.	.	.
.	.	.	.	.	.	16E\	-cu-	.	16e\	-cu-	.	16g#\	-cu-	.	16cc#\JJ	.	.	.
.	.	.	.	.	24cc#\JJ	.	.	.	.	.	.	.	.	.	.	.	.	.
8E\	.	.	.	.	8b\L	4E\	-los	.	8e\	-los	.	8g#\	-los	.	8b\	-los	4r	4r
8E\J	.	.	8g#/	.	8e\J	.	.	.	8r	.	.	8r	.	.	8r	.	.	.
!	!	!	!	!	!	!LO:LB:g=original	!	!	!	!	!	!LO:LB:g=original	!	!	!	!	!	!
=44	=44	=44	=44	=44	=44	=44	=44	=44	=44	=44	=44	=44	=44	=44	=44	=44	=44	=44
.	6	.	.	.	.	.	.	.	.	.	.	.	.	.	.	.	.	.
!	!	!	!	!	!	!	!	!	!	!	!	!	!	!	!	!	!LO:N:vis=0	!LO:N:vis=0
4E\	7 3	.	8b/	.	8ddn\	4E\	me-	.	8G#/	me-	.	8b\	me-	.	8ddn\	me-	1r	1r
.	.	.	4b/	.	4dd\	.	.	.	8G#/	-os	.	4b\	-os	.	4dd\	-os	.	.
8F#\L	.	.	.	.	.	8F#\	-os	.	8r	.	.	.	.	.	.	.	.	.
8G#\J	.	.	16ddn\LL	.	16ff#\LL	8G#\	in	.	8B\	in	.	16ccn\LL	in	.	16ff#\LL	in	.	.
.	.	.	16b\JJ	.	16dd\JJ	.	.	.	.	.	.	16b\JJ	.	.	16dd\JJ	.	.	.
!	!	!	!	!	!	!	!	!	!LO:LB:g=original	!	!	!	!	!	!	!	!	!
=45	=45	=45	=45	=45	=45	=45	=45	=45	=45	=45	=45	=45	=45	=45	=45	=45	=45	=45
!LO:TX:a:t=P:problem:mixed beam	!	!	!	!	!	!	!	!	!LO:SIC:s=8b	!	!	!	!	!	!	!	!	!
!	!	!	!	!	!	!	!	!	!	!	!	!LO:N:vis=8.	!	!	!LO:SIC:s=8ddn	!	!	!
!	!	!	!	!	!LO:SIC:s=8ddn	!	!	!	!	!	!	!	!	!	!	!	!	!
8A\L	.	.	8b\L	.	8dd#\L	8A\	mon-	.	8e\	mon-	.	8b\	mon-	.	8dd#\	mon-	.	.
!	!	!	!	!	!	!LO:SIC:s=-tes	!	!	!	!	!	!	!	!	!	!	!	!
8AA/J	.	.	8a\	.	8cc#\	8AA/	-les	.	8e\	-tes	.	8a\	-tes	.	8cc#\	-tes	.	.
4r	.	.	8a#X\	.	8cc#\	4r	.	.	4r	.	.	4r	.	.	4r	.	.	.
.	.	.	8b\J	.	8dd#X\J	.	.	.	.	.	.	.	.	.	.	.	.	.
=46	=46	=46	=46	=46	=46	=46	=46	=46	=46	=46	=46	=46	=46	=46	=46	=46	=46	=46
8F#\L	7 #	.	8cc#\	.	8ee\	4F#\	me-	.	8A#X/	me-	.	8cc#\	me-	.	8ee\	me-	2r	2r
8F#\	.	.	4cc#\	.	4ee\	.	.	.	8A#/	-os	.	4cc#\	-os	.	4ee\	-os	.	.
8G#\	.	.	.	.	.	8G#\	-os	.	8r	.	.	.	.	.	.	.	.	.
8A#X\J	.	.	16ee\LL	.	16gg#\LL	8A#X\	in	.	8c#\	in	.	16ee\LL	in	.	16gg#\LL	in	.	.
.	.	.	16cc#\JJ	.	16ee\JJ	.	.	.	.	.	.	16cc#\JJ	.	.	16ee\JJ	.	.	.
!	!	!	!	!	!	!	!	!	!	!	!	!	!	!	!	!	!LO:LB:g=original	!
=47	=47	=47	=47	=47	=47	=47	=47	=47	=47	=47	=47	=47	=47	=47	=47	=47	=47	=47
!LO:TX:a:t=P:problem:mixed beam	!	!	!	!	!	!	!	!	!	!	!	!	!	!	!	!	!	!
8B\L	X 9	.	8cc#\L	.	8ee\L	8B\	mon-	.	8f#\	mon-	.	8cc#\	mon-	.	8ee\	mon-	4r	4r
!	!	!	!	!	!	!	!	!	!	!	!	!LO:SIC:s=-tes	!	!	!	!	!	!
8BB/J	X 8	.	8b\J	.	8dd#\J	8BB/	-tes	.	8f#\	-tes	.	8b\	-les	.	8dd#X\	-tes	.	.
8r	.	.	16b\LL	.	16dd#\LL	8r	.	.	8r	.	.	8r	.	.	8r	.	8r	8r
.	.	.	16cc#\	.	16ee\	.	.	.	.	.	.	.	.	.	.	.	.	.
8BB/	.	.	16cc#\	.	16ff#\	16BB/	un-	.	16B\	un-	.	16f#\	un-	.	16dd#X\	un-	8B/	8f#\
.	.	.	16dd#\JJ	.	16gg#\JJ	16BB/	-de	.	16B\	-de	.	16f#\	-de	.	16dd#\	-de	.	.
!	!	!	!	!	!	!	!	!	!	!	!	!	!	!	!LO:LB:g=original	!	!	!
=48	=48	=48	=48	=48	=48	=48	=48	=48	=48	=48	=48	=48	=48	=48	=48	=48	=48	=48
8BB/L	6 4_	.	8ee\	.	8gg#\	8BB/	mi-	.	8B\	mi-	.	8g#\	mi-	.	8ee\	mi-	2e\	2g#\
8BB/	.	.	4ee\	.	4gg#\	8BB/	-hi	.	8B\	-hi	.	8g#\	-hi	.	8ee\	-hi	.	.
8BB/	.	.	.	.	.	8r	.	.	8r	.	.	8r	.	.	8r	.	.	.
8BB/J	x	.	8ee\	.	8gg#\	8BB/	au-	.	8c#\	au-	.	8g#\	au-	.	8ee\	au-	.	.
!	!	!	!LO:LB:g=original	!	!	!	!	!	!	!	!	!	!	!	!	!	!	!
=49	=49	=49	=49	=49	=49	=49	=49	=49	=49	=49	=49	=49	=49	=49	=49	=49	=49	=49
8C#/L	X 3	.	8ee\	.	8gg#\	8.C#/	-xi-	.	8.e\	-xi-	.	8.g#\	-xi-	.	8.ee\	-xi-	2e\	2g#\
8C#/	.	.	4ee\	.	4gg#\	.	.	.	.	.	.	.	.	.	.	.	.	.
.	.	.	.	.	.	16C#/	-li-	.	16e\	-li-	.	16g#\	-li-	.	16ee\	-li-	.	.
8C#/	.	.	.	.	.	8C#/	-um	.	8e\	-um	.	8g#\	-um	.	8ee\	-um	.	.
8C#/J	.	.	8ee\	.	8gg#\	8C#/	au-	.	8e\	au-	.	8g#\	au-	.	8ee\	au-	.	.
!	!	!	!	!	!	!	!	!	!	!	!	!LO:LB:g=original	!	!	!	!	!	!
=50	=50	=50	=50	=50	=50	=50	=50	=50	=50	=50	=50	=50	=50	=50	=50	=50	=50	=50
8AA#X/L	6 5	.	8ee\	.	8ff#\	4.AA#X/	-xi-	.	4.c#\	-xi-	.	4.f#\	-xi-	.	4.ee\	-xi-	2e\	2f#\
8AA#/	.	.	4ee\	.	4ff#\	.	.	.	.	.	.	.	.	.	.	.	.	.
8AA#/	.	.	.	.	.	.	.	.	.	.	.	.	.	.	.	.	.	.
8AA#/J	.	.	8ee\	.	8ff#\	16AA#/	-li-	.	16c#\	-li-	.	16f#\	-li-	.	16ee\	-li-	.	.
.	.	.	.	.	.	16AA#/	-um	.	16c#\	-um	.	16f#\	-um	.	16ee\	-um	.	.
!	!	!	!	!	!LO:LB:g=original	!LO:LB:g=original	!	!	!LO:LB:g=original	!	!	!	!	!	!	!	!	!
=51	=51	=51	=51	=51	=51	=51	=51	=51	=51	=51	=51	=51	=51	=51	=51	=51	=51	=51
8BB/L	X 9	.	8ee\L	.	8ff#\L	8BB/	ve-	.	8c#\	ve-	.	8f#\	ve-	.	8ee\	ve-	4B/	4f#\
8BB/	X 8	.	8dd#\J	.	8ff#\J	16BB/	-ni-	.	16B\	-ni-	.	16f#\	-ni-	.	16dd#\	-ni-	.	.
.	.	.	.	.	.	16BB/	-et	.	16B\	-et	.	16f#\	-et	.	16dd#\	-et	.	.
8BB/J	.	.	16.b\LL	.	16dd#\LL	4r	.	.	4r	.	.	4r	.	.	4r	.	4r	4r
.	.	.	.	.	16ee\	.	.	.	.	.	.	.	.	.	.	.	.	.
.	.	.	32b\K	.	.	.	.	.	.	.	.	.	.	.	.	.	.	.
!	!	!	!	!LO:HP:a:i:t=p:	!	!	!	!	!	!	!	!	!	!	!	!	!	!
!	!	!	!	!LO:DY:b:rj	!	!	!	!	!	!	!	!	!	!	!	!	!	!
8r	.	.	16.cc#\	p	16ee\	.	.	.	.	.	.	.	.	.	.	.	.	.
.	.	.	.	.	16ff#\JJ	.	.	.	.	.	.	.	.	.	.	.	.	.
.	.	.	32dd#\JJk	.	.	.	.	.	.	.	.	.	.	.	.	.	.	.
!LO:LB:g=original	!	!	!	!	!	!	!	!	!	!	!	!	!	!	!	!	!	!
=52	=52	=52	=52	=52	=52	=52	=52	=52	=52	=52	=52	=52	=52	=52	=52	=52	=52	=52
!	!	!LO:HP:a:i:t=fo	!	!	!	!	!	!	!	!	!	!	!	!	!	!	!	!
!	!	!LO:DY:a	!	!	!	!	!	!	!	!	!	!	!	!	!	!	!	!
8e\L	.	f	8ee\	.	8gg#\	8E\	un-	.	8B\	un-	.	8g#\	un-	.	8ee\	un-	8g#\	2b\
8E\	.	.	4ee\	.	4gg#\	8E\	-de	.	8B\	-de	.	8g#\	-de	.	8ee\	-de	4g#\	.
8G#\	.	.	.	.	.	8r	.	.	8r	.	.	8r	.	.	8r	.	.	.
*	*	*	*	*	*Xtuplet	*	*	*	*	*ij	*	*	*ij	*	*	*ij	*Xtuplet	*
!	!	!	!LO:TUP:a:problem:klamra łukowa	!	!LO:TUP:a:problem:klamra łukowa	!	!	!	!	!	!	!	!	!	!	!	!	!
8B\J	.	.	24ff#\LL	.	24aa\LL	16B\	un-	.	16B\	un-	.	16a\	un-	.	16ff#\	un-	24a\LL	.
.	.	.	24ee\	.	24gg#\	.	.	.	.	.	.	.	.	.	.	.	24g#\	.
.	.	.	.	.	.	16B\	-de	.	16B\	-de	.	16f#\	-de	.	16dd#\	-de	.	.
*	*	*	*	*	*	*	*	*	*	*Xij	*	*	*Xij	*	*	*Xij	*	*
.	.	.	24dd#\JJ	.	24ff#\JJ	.	.	.	.	.	.	.	.	.	.	.	24f#\JJ	.
!	!	!	!	!	!	!	!	!	!	!	!	!	!	!	!LO:LB:g=original	!	!	!
=53	=53	=53	=53	=53	=53	=53	=53	=53	=53	=53	=53	=53	=53	=53	=53	=53	=53	=53
8e\L	.	.	8ee\	.	8gg#\	8e\	mi-	.	8B\	mi-	.	8g#\	mi-	.	8ee\	mi-	8g#\	2b\
8E\	.	.	4ee\	.	4gg#\	8E\	-hi	.	8B\	-hi	.	8g#\	-hi	.	8ee\	-hi	4g#\	.
8G#\	.	.	.	.	.	8r	.	.	8r	.	.	8r	.	.	8r	.	.	.
*	*	*	*	*	*	*	*	*	*	*ij	*	*	*	*	*	*	*	*
!	!	!	!LO:TUP:a:problem:klamra łukowa	!	!LO:TUP:a:problem:klamra łukowa	!	!	!	!LO:SIC:s=un-	!	!	!	!	!	!	!	!	!
8B\J	.	.	24ff#\LL	.	24aa\LL	16B\	un-	.	16B\	mi-	.	16a\	un-	.	16ff#\	un-	24a\LL	.
.	.	.	24ee\	.	24gg#\	.	.	.	.	.	.	.	.	.	.	.	24g#\	.
!	!	!	!	!	!	!	!	!	!LO:SIC:s=-de	!	!	!	!	!	!	!	!	!
.	.	.	.	.	.	16B\	-de	.	16B\	-hi	.	16f#\	-de	.	16dd#\	-de	.	.
*	*	*	*	*	*	*	*	*	*	*Xij	*	*	*	*	*	*	*	*
.	.	.	24dd#\JJ	.	24ff#\JJ	.	.	.	.	.	.	.	.	.	.	.	24f#\JJ	.
=54	=54	=54	=54	=54	=54	=54	=54	=54	=54	=54	=54	=54	=54	=54	=54	=54	=54	=54
!	!	!	!	!	!	!	!	!	!	!	!	!LO:SIC:s=mi-	!	!	!	!	!	!
8e\L	.	.	8ee\	.	8gg#\	8e\	mi-	.	8B\	mi-	.	8g#\	ni-	.	8ee\	mi-	8g#\	2b\
8E\	.	.	4ee\	.	4gg#\	8E\	-hi	.	8B\	-hi	.	8g#\	-hi	.	8ee\	-hi	4g#\	.
8G#\	.	.	.	.	.	8r	.	.	8r	.	.	8r	.	.	8r	.	.	.
!	!	!	!LO:TUP:a:problem:klamra łukowa	!	!LO:TUP:a:problem:klamra łukowa	!	!	!	!	!	!	!	!	!	!	!	!	!
8B\J	.	.	24ff#\LL	.	24aa\LL	8B\	au-	.	8B\	au-	.	8f#\	au-	.	8dd#\	au-	24a\LL	.
.	.	.	24ee\	.	24gg#\	.	.	.	.	.	.	.	.	.	.	.	24g#\	.
.	.	.	24dd#\JJ	.	24ff#\JJ	.	.	.	.	.	.	.	.	.	.	.	24f#\JJ	.
=55	=55	=55	=55	=55	=55	=55	=55	=55	=55	=55	=55	=55	=55	=55	=55	=55	=55	=55
8e\L	.	.	8ee\	.	8gg#\	8.e\	-xi-	.	8.B\	-xi-	.	8.g#\	-xi-	.	8.ee\	-xi-	4g#\	4b\
8E\	.	.	4ee\	.	4gg#\	.	.	.	.	.	.	.	.	.	.	.	.	.
.	.	.	.	.	.	16E\	-li-	.	16B\	-li-	.	16g#\	-li-	.	16ee\	-li-	.	.
8G#\	.	.	.	.	.	8E\	-um	.	8B\	-um	.	8g#\	-um	.	8ee\	-um	4f#\	4g#\
8B\J	.	.	8ee\	.	8gg#\	8r	.	.	8r	.	.	8r	.	.	8r	.	.	.
!	!	!	!	!	!	!	!	!	!	!	!	!LO:LB:g=original	!	!	!	!	!	!
=56	=56	=56	=56	=56	=56	=56	=56	=56	=56	=56	=56	=56	=56	=56	=56	=56	=56	=56
!LO:TX:a:t=P:problem:mixed beam	!	!	!	!	!	!	!	!	!	!	!	!	!	!	!	!	!	!
8B\L	.	.	8ee\L	.	8gg#\L	8B\	ve-	.	8B\	ve-	.	8g#\	ve-	.	8ee\	ve-	8e\L	8g#\L
8BB/J	.	.	8dd#\J	.	8ff#\J	16BB/	-ni-	.	16B\	-ni-	.	16f#\	-ni-	.	16dd#\	-ni-	8B\J	8f#\J
.	.	.	.	.	.	16BB/	-et	.	16B\	-et	.	16f#\	-et	.	16dd#\	-et	.	.
16B\LL	.	.	4r	.	4r	4r	.	.	4r	.	.	4r	.	.	4r	.	4r	4r
16A\	.	.	.	.	.	.	.	.	.	.	.	.	.	.	.	.	.	.
16G#\	.	.	.	.	.	.	.	.	.	.	.	.	.	.	.	.	.	.
16F#\JJ	.	.	.	.	.	.	.	.	.	.	.	.	.	.	.	.	.	.
!	!	!	!	!	!	!LO:LB:g=original	!	!	!LO:LB:g=original	!	!	!	!	!	!	!	!LO:LB:g=original	!
=57	=57	=57	=57	=57	=57	=57	=57	=57	=57	=57	=57	=57	=57	=57	=57	=57	=57	=57
8E\L	.	.	8g#/	.	8b\	8E\	Le-	.	8e\	Le-	.	8g#\	Le-	.	8b\	Le-	4.g#\	4.b\
8E\	.	.	4g#/	.	4b\	4E\	-va-	.	4e\	-va-	.	4g#\	-va-	.	4b\	-va-	.	.
8E\	.	.	.	.	.	.	.	.	.	.	.	.	.	.	.	.	.	.
8E\J	.	.	16a/LL	.	16cc#\LL	8E\	-vi	.	8e\	-vi	.	16a\LL	-vi	.	16cc#\LL	-vi	16a\LL	16cc#\LL
.	.	.	16f#/JJ	.	16b\JJ	.	.	.	.	.	.	16f#\JJ	.	.	16a\JJ	.	16g#\JJ	16b\JJ
!	!	!	!LO:LB:g=original	!	!	!	!	!	!	!	!	!	!	!	!	!	!	!
=58	=58	=58	=58	=58	=58	=58	=58	=58	=58	=58	=58	=58	=58	=58	=58	=58	=58	=58
8E\L	5 3	.	8g#/	.	8b\L	8.E\	o-	.	8.e\	o-	.	8.g#\	o-	.	8b\	o-	8g#\	8b\
8E\	.	.	4g#/	.	24ee\L	.	.	.	.	.	.	.	.	.	16ee\LL	-cu-	4g#\	4b\
.	.	.	.	.	24dd#\	.	.	.	.	.	.	.	.	.	.	.	.	.
.	.	.	.	.	.	16E\	-cu-	.	16e\	-cu-	.	16g#\	-cu-	.	16cc#\JJ	.	.	.
.	.	.	.	.	24cc#\JJ	.	.	.	.	.	.	.	.	.	.	.	.	.
!	!	!	!	!	!LO:TX:a:t=P:problem:mixed beam	!	!	!	!	!	!	!	!	!	!	!	!	!
!	!	!	!	!	!	!	!	!	!LO:SIC:s=8e	!	!	!	!	!	!	!	!	!
!	!	!	!	!	!	!	!	!	!LO:N:vis=16	!	!	!	!	!	!	!	!	!
8E\	.	.	.	.	8b\L	4E\	-los	.	8e\	-los	.	4g#\	-los	.	8b\	-los	.	.
8E\J	.	.	8g#/	.	8e/J	.	.	.	8r	.	.	.	.	.	8r	.	8g#\	8b\
!	!	!	!	!	!	!	!	!	!	!	!	!	!	!	!LO:LB:g=original	!	!	!LO:LB:g=original
=59	=59	=59	=59	=59	=59	=59	=59	=59	=59	=59	=59	=59	=59	=59	=59	=59	=59	=59
8E\L	.	.	8a/	.	8cc#\	8E\	me-	.	8e\	me-	.	8a\	me-	.	8cc#\	me-	8a\	8cc#\
8E\	.	.	4a/	.	4cc#\	4E\	-os	.	4e\	-os	.	4a\	.	.	4b\	-os	4a\	4cc#\
8E\	.	.	.	.	.	.	.	.	.	.	.	.	-os	.	.	.	.	.
8E\J	.	.	8g#/	.	16b\LL	8E\	in	.	8e\	in	.	8g#\	in	.	16b\LL	in	8a\	8b\
.	.	.	.	.	16ee\JJ	.	.	.	.	.	.	.	.	.	16ee\JJ	.	.	.
=60	=60	=60	=60	=60	=60	=60	=60	=60	=60	=60	=60	=60	=60	=60	=60	=60	=60	=60
8BB\L	.	.	8f#/L	.	8a/L	8B\	mon-	.	16f#\LL	mon-	.	8f#\	mon-	.	8a\	mon-	8f#\L	8a\L
.	.	.	.	.	.	.	.	.	16d#\JJ	.	.	.	.	.	.	.	.	.
!	!	!	!	!	!	!LO:SIC:s=-tes	!	!	!	!	!	!	!	!	!	!	!	!
8E\J	.	.	8e/J	.	8g#/J	8e\	-les	.	8d#\	-tes	.	8e\	-tes	.	8g#\	-tes	8e\J	8g#\J
8E\L	.	.	4r	.	4r	4r	.	.	4r	.	.	4r	.	.	4r	.	4r	4r
!	!	!LO:HP:a:i:t=fo	!	!	!	!	!	!	!	!	!	!	!	!	!	!	!	!
!	!	!LO:DY:a	!	!	!	!	!	!	!	!	!	!	!	!	!	!	!	!
16G#\L	.	f	.	.	.	.	.	.	.	.	.	.	.	.	.	.	.	.
16B\JJ	.	.	.	.	.	.	.	.	.	.	.	.	.	.	.	.	.	.
!	!	!	!	!	!LO:LB:g=original	!	!	!	!	!	!	!	!	!	!	!	!	!
=61	=61	=61	=61	=61	=61	=61	=61	=61	=61	=61	=61	=61	=61	=61	=61	=61	=61	=61
!	!	!	!	!	!	!	!	!	!	!	!	!	!	!LO:HP:a:i:t=pia	!	!	!	!
!	!	!	!	!	!	!	!	!	!	!	!	!	!	!LO:DY:a	!	!	!	!
8e\L	.	.	8g#/	.	8ee\	2r	.	.	2r	.	.	8e\	Le-	p	8g#\	Le-	2B/	2B/
8E\	.	.	4g#/	.	4ee\	.	.	.	.	.	.	4e\	-va-	.	4g#\	-va-	.	.
8G#\	.	.	.	.	.	.	.	.	.	.	.	.	.	.	.	.	.	.
!	!	!	!LO:TUP:b	!	!	!	!	!	!	!	!	!	!	!	!	!	!	!
!	!	!	!LO:TUP:b:problem:klamra łukowa	!	!LO:TUP:a:problem:klamra łukowa	!	!	!	!	!	!	!LO:TUP:a:problem:klamra łukowa	!	!	!	!	!	!
8B\J	.	.	24a/LL	.	24ff#\LL	.	.	.	.	.	.	24f#\LL	-vi	.	24a\LL	-vi	.	.
.	.	.	24g#/	.	24ee\	.	.	.	.	.	.	24e\	.	.	24g#\	.	.	.
.	.	.	24f#/JJ	.	24dd#\JJ	.	.	.	.	.	.	24d#\JJ	.	.	24f#\JJ	.	.	.
=62	=62	=62	=62	=62	=62	=62	=62	=62	=62	=62	=62	=62	=62	=62	=62	=62	=62	=62
!	!	!	!	!	!	!	!	!LO:HP:a:i:t=pia	!	!	!LO:HP:a:i:t=pia	!	!	!	!	!	!	!
!	!	!	!	!	!	!	!	!LO:DY:a	!	!	!LO:DY:a	!	!	!	!	!	!	!
8e\L	.	.	8g#/	.	8ee\	8G#\	Le-	p	8e\	Le-	p	8.e\	o-	.	8.g#\	o-	2B/	2B/
8E\	.	.	4e/	.	4g#/	4G#\	-va-	.	4e\	-va-	.	.	.	.	.	.	.	.
.	.	.	.	.	.	.	.	.	.	.	.	16e\	-cu-	.	16g#\	-cu-	.	.
8G#\	.	.	.	.	.	.	.	.	.	.	.	8e\	-los	.	8g#\	-los	.	.
!	!	!	!LO:TUP:b	!	!	!	!	!	!	!	!	!	!	!	!	!	!	!
!	!	!	!LO:TUP:b:problem:klamra łukowa	!	!	!	!	!	!LO:TUP:a:problem:klamra łukowa	!	!	!	!	!	!	!	!	!
8B\J	.	.	24f#/LL	.	24a/LL	8G#\	-vi	.	24f#\LL	-vi	.	8r	.	.	8r	.	.	.
.	.	.	24e/	.	24g#/	.	.	.	24e\	.	.	.	.	.	.	.	.	.
.	.	.	24d#/JJ	.	24f#/JJ	.	.	.	24d#\JJ	.	.	.	.	.	.	.	.	.
!	!	!	!	!	!	!	!	!	!	!	!	!LO:LB:g=original	!	!	!	!	!	!
=63	=63	=63	=63	=63	=63	=63	=63	=63	=63	=63	=63	=63	=63	=63	=63	=63	=63	=63
8e\L	.	.	8e/	.	8g#/	8.G#\	o-	.	8.e\	o-	.	8e\	me-	.	8g#\	me-	2B/	2B/
8E\	.	.	4g#/	.	4ee\	.	.	.	.	.	.	4e\	-os	.	4g#\	-os	.	.
.	.	.	.	.	.	16G#\	-cu-	.	16e\	-cu-	.	.	.	.	.	.	.	.
8G#\	.	.	.	.	.	8G#\	-los	.	8e\	-los	.	.	.	.	.	.	.	.
!	!	!	!LO:TUP:b	!	!	!	!	!	!	!	!	!	!	!	!	!	!	!
!	!	!	!LO:TUP:b:problem:klamra łukowa	!	!LO:TUP:a:problem:klamra łukowa	!	!	!	!	!	!	!	!	!	!	!	!	!
8B\J	.	.	24a/LL	.	24ff#\LL	8r	.	.	8r	.	.	16f#\LL	in	.	24a\LL	in	.	.
.	.	.	24g#/	.	24ee\	.	.	.	.	.	.	.	.	.	24g#\	.	.	.
.	.	.	.	.	.	.	.	.	.	.	.	16d#\JJ	.	.	.	.	.	.
.	.	.	24f#/JJ	.	24dd#\JJ	.	.	.	.	.	.	.	.	.	24f#\JJ	.	.	.
=64	=64	=64	=64	=64	=64	=64	=64	=64	=64	=64	=64	=64	=64	=64	=64	=64	=64	=64
8e\L	.	.	8g#/	.	8ee\	8G#\	me-	.	8e\	Le-	.	8e\	mon-	.	8g#\	mon-	2B/	2B/
8E\	.	.	4e/	.	4g#/	4G#\	-os	.	4e\	-va-	.	8e\	-tes	.	8g#\	-tes	.	.
8G#\	.	.	.	.	.	.	.	.	.	.	.	4r	.	.	4r	.	.	.
!	!	!	!LO:TUP:b	!	!	!	!	!	!	!	!	!	!	!	!	!	!	!
!	!	!	!LO:TUP:b:problem:klamra łukowa	!	!LO:TUP:b:problem:klamra łukowa	!	!	!	!LO:TUP:a:problem:klamra łukowa	!	!	!	!	!	!	!	!	!
8B\J	.	.	24f#/LL	.	24a/LL	24A\LL	in	.	24f#\LL	-vi	.	.	.	.	.	.	.	.
.	.	.	24e/	.	24g#/	24G#\	.	.	24e\	.	.	.	.	.	.	.	.	.
.	.	.	24d#/JJ	.	24f#/JJ	24F#\JJ	.	.	24d#\JJ	.	.	.	.	.	.	.	.	.
!LO:LB:g=original	!	!	!	!	!	!LO:LB:g=original	!	!	!LO:LB:g=original	!	!	!	!	!	!	!	!	!
=65	=65	=65	=65	=65	=65	=65	=65	=65	=65	=65	=65	=65	=65	=65	=65	=65	=65	=65
8e\L	.	.	4e/	.	4g#/	8G#\	mon-	.	8e\	o-	.	8b\	un-	.	8ee\	un-	4B/	4B/
8E\J	.	.	.	.	.	8G#\	-tes	.	16e\	-cu-	.	8e\	-de	.	8b\	-de	.	.
.	.	.	.	.	.	.	.	.	16e\	-los	.	.	.	.	.	.	.	.
!	!	!	!LO:TUP:b	!	!	!	!	!	!	!	!	!	!	!	!	!	!	!
!	!	!	!LO:TUP:b:problem:klamra łukowa	!	!LO:TUP:b:problem:klamra łukowa (?)	!	!	!	!	!	!	!	!	!	!	!	!	!
4r	.	.	24g#/LL	.	24e/LL	8r	.	.	8r	.	.	8r	.	.	8r	.	4r	4r
.	.	.	24e/	.	24g#/	.	.	.	.	.	.	.	.	.	.	.	.	.
.	.	.	24g#/JJ	.	24b/JJ	.	.	.	.	.	.	.	.	.	.	.	.	.
!	!	!	!	!	!	!	!	!LO:DY:a	!	!	!LO:DY:a	!	!	!	!	!	!	!
*	*	*	*	*	*tuplet	*	*	*	*	*	*	*	*	*	*	*ij	*	*
!	!	!	!LO:TUP:a:problem:klamra łukowa	!	!LO:TUP:a:problem:klamra łukowa	!	!	!LO:HP:a:i:t=for	!	!	!LO:HP:a:i:t=for.	!	!	!	!	!	!	!
.	.	.	24b\LL	.	24ee\LL	16E\	un-	f	16B\	un-	f	16g#\	un-	.	16ee\	un-	.	.
.	.	.	24ee\	.	24gg#\	.	.	.	.	.	.	.	.	.	.	.	.	.
.	.	.	.	.	.	16E\	-de	.	16B\	-de	.	16g#\	-de	.	16ee\	-de	.	.
*	*	*	*	*	*	*	*	*	*	*	*	*	*	*	*	*Xij	*	*
.	.	.	24gg#\JJ	.	24bb\JJ	.	.	.	.	.	.	.	.	.	.	.	.	.
!	!	!	!LO:LB:g=original	!	!	!	!	!	!	!	!	!	!	!	!LO:LB:g=original	!	!	!
=66	=66	=66	=66	=66	=66	=66	=66	=66	=66	=66	=66	=66	=66	=66	=66	=66	=66	=66
!	!	!	!	!	!	!	!	!	!	!	!	!	!	!LO:HP:a:i:t=for	!	!	!	!
!	!	!	!	!	!	!	!	!	!	!	!	!	!	!LO:DY:a	!	!	!	!
8E\L	.	.	4e/ 4cc# 4aa	.	4a/ 4ee 4ccc#	8.E\	ve-	.	8.c#\	ve-	.	8.a\	ve-	f	8.ee\	ve-	2e\	2e\
8E\	.	.	.	.	.	.	.	.	.	.	.	.	.	.	.	.	.	.
.	.	.	.	.	.	16E\	-ni-	.	16c#\	-ni-	.	16a\	-ni-	.	16ff#\	-ni-	.	.
!	!	!	!	!	!LO:TUP:b:problem:klamra łukowa	!	!	!	!	!	!	!	!	!	!	!	!	!
*	*	*	*Xtuplet	*	*	*	*	*	*	*	*	*	*	*	*	*	*	*
8E\	.	.	24a/LL	.	24a/LL	8E\	-et	.	8c#\	-et	.	8a\	-et	.	8ee\	-et	.	.
.	.	.	24e/	.	24cc#/	.	.	.	.	.	.	.	.	.	.	.	.	.
.	.	.	24a/JJ	.	24ee/JJ	.	.	.	.	.	.	.	.	.	.	.	.	.
*	*	*	*tuplet	*	*	*	*	*	*	*	*	*	*	*	*	*	*	*
!	!	!	!LO:TUP:a:problem:klamra łukowa	!	!LO:TUP:a:problem:klamra łukowa	!	!	!	!	!	!	!	!	!	!	!	!	!
8E\J	.	.	24cc#\LL	.	24aa\LL	8E\	au-	.	8c#\	au-	.	8a\	au-	.	8ee\	au-	.	.
.	.	.	24ee\	.	24ccc#\	.	.	.	.	.	.	.	.	.	.	.	.	.
.	.	.	24aa\JJ	.	24eee\JJ	.	.	.	.	.	.	.	.	.	.	.	.	.
=67	=67	=67	=67	=67	=67	=67	=67	=67	=67	=67	=67	=67	=67	=67	=67	=67	=67	=67
8E\L	.	.	4e/ 4cc# 4aa	.	4g#/ 4ee 4bb	8.E\	-xi-	.	8.B\	-xi-	.	8.g#\	-xi-	.	8.ee\	-xi-	4.g#\	4.b\
8E\	.	.	.	.	.	.	.	.	.	.	.	.	.	.	.	.	.	.
.	.	.	.	.	.	16E\	-li-	.	16B\	-li-	.	16g#\	-li-	.	16ee\	-li-	.	.
*	*	*	*	*	*Xtuplet	*	*	*	*	*	*	*	*	*	*	*	*	*
!	!	!	!LO:TUP:a:problem:klamra łukowa	!	!	!	!	!	!	!	!	!	!	!	!	!	!	!
8G#\	.	.	24ee\LL	.	24gg#\LL	8G#\	-um	.	8B\	-um	.	8g#\	-um	.	8ee\	-um	.	.
.	.	.	24dd#\	.	24ff#\	.	.	.	.	.	.	.	.	.	.	.	.	.
.	.	.	24ee\JJ	.	24gg#\JJ	.	.	.	.	.	.	.	.	.	.	.	.	.
!	!	!	!LO:TUP:a:problem:klamra łukowa	!	!LO:TUP:a:problem:klamra łukowa	!	!	!	!	!	!	!	!	!	!	!	!	!
8B\J	.	.	24ff#\LL	.	24aa\LL	8B\	au-	.	8A\	au-	.	8f#\	au-	.	8dd#\	au-	8f#\	8a\
.	.	.	24ee\	.	24gg#\	.	.	.	.	.	.	.	.	.	.	.	.	.
.	.	.	24dd#\JJ	.	24ff#\JJ	.	.	.	.	.	.	.	.	.	.	.	.	.
=68	=68	=68	=68	=68	=68	=68	=68	=68	=68	=68	=68	=68	=68	=68	=68	=68	=68	=68
!	!	!	!LO:SIC:s=8ee	!	!	!	!	!	!	!	!	!	!	!	!	!	!	!
!LO:TX:a:t=P:problem:mixed beam	!	!	!LO:N:vis=16	!	!	!	!	!	!	!	!	!	!	!	!	!	!	!
8c#\L	.	.	8ee\L	.	8ee\L	8c#\	-xi-	.	8G#/	-xi-	.	8e\	-xi-	.	8ee\	-xi-	8e\L	8g#\L
8A\	.	.	16ff#\L	.	16aa\L	16A\	-li-	.	16c#\	-li-	.	16a\	-li-	.	16ff#\	-li-	16f#\L	16a\L
.	.	.	16ee\JJ	.	16gg#\JJ	16A\	-um	.	16c#\	-um	.	16g#\	-um	.	16ee\	-um	16e\JJ	16g#\JJ
!	!	!	!	!	!LO:TX:B:a:t=t	!	!	!	!	!	!	!	!	!	!	!	!	!
8B\	.	.	8ee\L	.	4ff#\	4B\	mi-	.	4B\	mi-	.	4f#\	mi-	.	8ee\L	mi-	4B/	4f#\
8BB/J	.	.	8dd#\J	.	.	.	.	.	.	.	.	.	.	.	8dd#\J	.	.	.
!	!	!	!	!	!	!	!	!	!	!	!	!LO:LB:g=original	!	!	!	!	!	!
=69	=69	=69	=69	=69	=69	=69	=69	=69	=69	=69	=69	=69	=69	=69	=69	=69	=69	=69
!	!	!	!LO:TX:a:t=P:problem:mixed beam	!	!LO:TX:a:t=P:problem:mixed beam	!	!	!	!	!	!	!	!	!	!	!	!	!
4E\	.	.	8ee\L	.	8ee\L	4E\	-hi	.	4c#\	-hi	.	4g#\	-hi	.	4ee\	-hi	4G#/	4e\
.	.	.	8B/J	.	8B/J	.	.	.	.	.	.	.	.	.	.	.	.	.
4r	.	.	4e/	.	4e/	4r	.	.	4r	.	.	4r	.	.	4r	.	4r	4r
!	!	!	!	!	!LO:LB:g=original	!	!	!	!LO:TX:a:t=P:problem:podwójna kreska taktowa	!	!	!	!	!	!	!	!LO:LB:g=original	!
=70	=70	=70	=70	=70	=70	=70	=70	=70	=70||	=70||	=70||	=70	=70	=70	=70	=70	=70	=70
!LO:TX:a:t=P:problem:repetycja t. 70-71	!	!	!	!	!	!LO:N:vis=00	!	!	!LO:N:vis=00	!	!	!LO:N:vis=00	!	!	!LO:N:vis=00	!	!	!
8D#/L	.	.	8f#/L	.	8b\	0r	.	.	0r	.	.	0r	.	.	0r	.	2B/	2B/
8C#/	.	.	8e/	.	4b\	.	.	.	.	.	.	.	.	.	.	.	.	.
8BB/	.	.	8d#/	.	.	.	.	.	.	.	.	.	.	.	.	.	.	.
8D#/J	.	.	8f#/J	.	8aa\	.	.	.	.	.	.	.	.	.	.	.	.	.
=71	=71	=71	=71	=71	=71	=71	=71	=71	=71	=71	=71	=71	=71	=71	=71	=71	=71	=71
8E\L	.	.	8g#/L	.	16.gg#\LL	.	.	.	.	.	.	.	.	.	.	.	2B/	2B/
.	.	.	.	.	32bb\K	.	.	.	.	.	.	.	.	.	.	.	.	.
8F#\	.	.	8a/	.	16.dd#X\	.	.	.	.	.	.	.	.	.	.	.	.	.
.	.	.	.	.	32ff#\JJk	.	.	.	.	.	.	.	.	.	.	.	.	.
!	!	!	!	!	!LO:TX:a:t=P:problem:mixed beam	!	!	!	!	!	!	!	!	!	!	!	!	!
8G#\	.	.	8b/	.	16.ee\LL	.	.	.	.	.	.	.	.	.	.	.	.	.
.	.	.	.	.	32e/K	.	.	.	.	.	.	.	.	.	.	.	.	.
8E\J	.	.	8g#/J	.	16.g#/	.	.	.	.	.	.	.	.	.	.	.	.	.
.	.	.	.	.	32b/JJk	.	.	.	.	.	.	.	.	.	.	.	.	.
=72	=72	=72	=72	=72	=72	=72	=72	=72	=72	=72	=72	=72	=72	=72	=72	=72	=72	=72
8D#/L	.	.	8f#/L	.	8b\	.	.	.	.	.	.	.	.	.	.	.	2B/	2B/
8C#/	.	.	8e/	.	4b\	.	.	.	.	.	.	.	.	.	.	.	.	.
8BB/	.	.	8d#/	.	.	.	.	.	.	.	.	.	.	.	.	.	.	.
8D#/J	.	.	8f#/J	.	8aa\	.	.	.	.	.	.	.	.	.	.	.	.	.
=73	=73	=73	=73	=73	=73	=73	=73	=73	=73	=73	=73	=73	=73	=73	=73	=73	=73	=73
8E\L	.	.	8g#/L	.	16.gg#\LL	.	.	.	.	.	.	.	.	.	.	.	2B/	4B/
.	.	.	.	.	32bb\K	.	.	.	.	.	.	.	.	.	.	.	.	.
8F#\	.	.	8a/	.	16.dd#\	.	.	.	.	.	.	.	.	.	.	.	.	.
.	.	.	.	.	32ff#\JJk	.	.	.	.	.	.	.	.	.	.	.	.	.
8G#\	.	.	8b/	.	16.ee\LL	.	.	.	.	.	.	.	.	.	.	.	.	4r
.	.	.	.	.	32gg#\K	.	.	.	.	.	.	.	.	.	.	.	.	.
8E\J	.	.	8g#/J	.	16.b\	.	.	.	.	.	.	.	.	.	.	.	.	.
.	.	.	.	.	32ddn\JJk	.	.	.	.	.	.	.	.	.	.	.	.	.
=74	=74	=74	=74	=74	=74	=74	=74	=74	=74	=74	=74	=74	=74	=74	=74	=74	=74	=74
!LO:TX:a:t=P:problem:mixed beam	!	!	!	!	!	!LO:N:vis=0	!	!	!LO:N:vis=00	!	!	!LO:N:vis=0	!	!	!LO:N:vis=0	!	!	!
8A\L	.	.	16a/LL	.	16.cc#/LL	1r	.	.	0r;>	.	.	1r;>	.	.	1r	.	16r	16r
.	.	.	16a/	.	.	.	.	.	.	.	.	.	.	.	.	.	16a\LL	16cc#\LL
.	.	.	.	.	32a/K	.	.	.	.	.	.	.	.	.	.	.	.	.
8F#\	.	.	16g#/	.	16.g#/	.	.	.	.	.	.	.	.	.	.	.	16g#\	16b\
.	.	.	16f#/JJ	.	.	.	.	.	.	.	.	.	.	.	.	.	16f#\JJ	16a\JJ
.	.	.	.	.	32f#/JJk	.	.	.	.	.	.	.	.	.	.	.	.	.
8B\	.	.	8e/L	.	8e/L	.	.	.	.	.	.	.	.	.	.	.	8e\L	8g#\L
8BB/J	.	.	8d#/J	.	8d#/J	.	.	.	.	.	.	.	.	.	.	.	8B\J	8f#\J
=75	=75	=75	=75	=75	=75	=75	=75	=75	=75	=75	=75	=75	=75	=75	=75	=75	=75	=75
4E\	.	.	8e/L	.	8e/L	.	.	.	.	.	.	.	.	.	.	.	8G#/L	8e/L
.	.	.	8B/	.	8B/J	.	.	.	.	.	.	.	.	.	.	.	16G#/L	16B/L
.	.	.	.	.	.	.	.	.	.	.	.	.	.	.	.	.	16G#/JJ	16B/JJ
!	!	!	!LO:SIC:s=4e	!	!	!	!	!	!	!	!	!	!	!	!	!	!	!
!LO:TX:a:t=P:problem:fermata pod i nad pauzą	!	!LO:N:vis=8	!	!	!	!	!	!	!	!	!	!	!	!	!	!	!	!
4r;<;>	.	.	4e/J	.	4e;>/	.	.	.	.	.	.	.	.	.	.	.	8G#/L	8B;>/L
.	.	.	.	.	.	.	.	.	.	.	.	.	.	.	.	.	8E/J	8G#/J
!	!	!	!LO:LB:g=original	!	!	!	!	!	!LO:TX:a:t=P:problem:brak podwójnej kreski w źródle	!	!	!	!	!	!	!	!	!LO:LB:g=original
!	!	!	!	!	!	!	!	!	!	!	!	!	!	!	!	!	!LO:TX:a:t=P:problem:pojedyncza kreska taktowa w źródle	!LO:TX:a:t=P:problem:pojedyncza kreska taktowa w źródle
=76||	=76||	=76||	=76||;>	=76||	=76||	=76||	=76||	=76||	=76	=76	=76	=76||	=76||	=76||	=76||	=76||	=76;>	=76
!	!	!	!	!	!	!LO:N:vis=0	!	!	!	!	!	!	!	!	!	!	!LO:N:vis=0	!LO:N:vis=0
8A\L	.	.	8c#/	.	8a\	1r	.	.	.	.	.	8c#\	au-	.	8a\	au-	1r	1r
8A\	.	.	4c#/	.	4a\	.	.	.	.	.	.	4c#\	-xi-	.	4a\	-xi-	.	.
8A\	.	.	.	.	.	.	.	.	.	.	.	.	.	.	.	.	.	.
8A\J	.	.	16dn/LL	.	16b\LL	.	.	.	.	.	.	16dn\	-li-	.	16b\	-li-	.	.
.	.	.	16c#/JJ	.	16a\JJ	.	.	.	.	.	.	16c#\	-um	.	16a\	-um	.	.
=77	=77	=77	=77	=77	=77	=77	=77	=77	=77	=77	=77	=77	=77	=77	=77	=77	=77	=77
8A\L	.	.	8c#/L	.	8a\L	.	.	.	.	.	.	8c#\	me-	.	8a\	me-	.	.
8A\	.	.	16f#/L	.	16ddn\L	.	.	.	.	.	.	16f#\	-um	.	16dd#\	-um	.	.
.	.	.	16e/JJ	.	16cc#\JJ	.	.	.	.	.	.	16e\	a	.	16cc#\	a	.	.
8A\	.	.	8a\L	.	8cc#\L	.	.	.	.	.	.	8g#\	Do-	.	8cc#\	Do-	.	.
8A\J	.	.	16dd#\L	.	16ff#\L	.	.	.	.	.	.	16ccn\LL	-mi-	.	16ff#\LL	-mi-	.	.
.	.	.	16cc#\JJ	.	16ee\JJ	.	.	.	.	.	.	16cc\JJ	.	.	16ee\JJ	.	.	.
!	!	!	!	!	!	!	!	!	!	!	!	!	!	!	!LO:LB:g=original	!	!	!
=78	=78	=78	=78	=78	=78	=78	=78	=78	=78	=78	=78	=78	=78	=78	=78	=78	=78	=78
!LO:TX:a:t=P:problem:mixed beam	!	!	!	!	!	!	!	!	!	!	!	!	!	!	!	!	!	!
!	!	!	!	!	!	!	!	!	!	!	!	!LO:SIC:s=4ccn	!	!	!	!	!	!
8A\L	.	.	4.cc#\	.	4.ee\	2r	.	.	2r	.	.	4cc#\	-no	.	4ee\	-no	2r	2r
8AA/	.	.	.	.	.	.	.	.	.	.	.	.	.	.	.	.	.	.
8C#/	.	.	.	.	.	.	.	.	.	.	.	8r	.	.	8r	.	.	.
8E/J	.	.	8b\	.	8ddn\	.	.	.	.	.	.	8b\	a	.	8dd#\	a	.	.
!	!	!	!	!	!LO:LB:g=original	!LO:LB:g=original	!	!	!	!	!	!	!	!	!	!	!	!
=79	=79	=79	=79	=79	=79	=79	=79	=79	=79	=79	=79	=79	=79	=79	=79	=79	=79	=79
!LO:TX:a:t=P:problem:mixed beam	!	!	!	!	!	!	!	!	!	!	!	!	!	!	!	!	!	!
8A\L	.	.	4a\	.	4cc#\	4r	.	.	4r	.	.	8a\	Do-	.	8cc#\	Do-	4r	4r
8AA/J	.	.	.	.	.	.	.	.	.	.	.	16a\	-mi-	.	16cc#\	-mi-	.	.
.	.	.	.	.	.	.	.	.	.	.	.	16a\	-no	.	16cc#\	-no	.	.
8r	.	.	8r	.	8r	8r	.	.	8r	.	.	8r	.	.	8r	.	8r	8r
8Dn\	.	.	8ff#\	.	8aa\	8Dn\	au-	.	8c#\	au-	.	8a\	au	.	8ff#\	au	8e\	8a\
!LO:LB:g=original	!	!	!	!	!	!	!	!	!LO:LB:g=original	!	!	!	!	!	!	!	!	!
=80	=80	=80	=80	=80	=80	=80	=80	=80	=80	=80	=80	=80	=80	=80	=80	=80	=80	=80
!LO:SIC:s=8Dn (cały takt)	!	!	!	!	!	!LO:SIC:s=4.Dn	!	!	!	!	!	!	!	!	!	!	!	!
8D#\L	6 5	.	16ff#\LL	.	16aa\LL	4.D#\	-xi-	.	4.B\	-xi-	.	4.a\	-xi-	.	4.ff#\	-xi-	2f#\	2a\
.	.	.	16ff#\	.	16aa\	.	.	.	.	.	.	.	.	.	.	.	.	.
8D#\	.	.	16ff#\	.	16aa\	.	.	.	.	.	.	.	.	.	.	.	.	.
.	.	.	16ff#\JJ	.	16aa\JJ	.	.	.	.	.	.	.	.	.	.	.	.	.
8D#\	.	.	16ff#\LL	.	16aa\LL	.	.	.	.	.	.	.	.	.	.	.	.	.
.	.	.	16ff#\	.	16aa\	.	.	.	.	.	.	.	.	.	.	.	.	.
!	!	!	!	!	!	!LO:SIC:s=16Dn	!	!	!	!	!	!	!	!	!	!	!	!
8D#\J	.	.	16ff#\	.	16aa\	16D#\	-li-	.	16B\	-li-	.	16a\	-li-	.	16ff#\	-li-	.	.
!	!	!	!	!	!	!LO:SIC:s=16Dn	!	!	!	!	!	!	!	!	!	!	!	!
.	.	.	16ff#\JJ	.	16aa\JJ	16D#\	-um	.	16B\	-um	.	16a\	-um	.	16ff#\	-um	.	.
!	!	!	!	!	!	!	!	!	!	!	!	!LO:LB:g=original	!	!	!	!	!	!
=81	=81	=81	=81	=81	=81	=81	=81	=81	=81	=81	=81	=81	=81	=81	=81	=81	=81	=81
8E\L	.	.	16ee\LL	.	16gg#\LL	4E\	me-	.	4B\	me-	.	4g#\	me-	.	4ee\	me-	2e\	2g#\
.	.	.	16ee\	.	16gg#\	.	.	.	.	.	.	.	.	.	.	.	.	.
8E\	.	.	16ee\	.	16gg#\	.	.	.	.	.	.	.	.	.	.	.	.	.
.	.	.	16ee\JJ	.	16gg#\JJ	.	.	.	.	.	.	.	.	.	.	.	.	.
8E\	.	.	16ee\LL	.	16gg#\LL	8E\	-um	.	8B\	-um	.	8g#\	-um	.	8ee\	-um	.	.
.	.	.	16ee\	.	16gg#\	.	.	.	.	.	.	.	.	.	.	.	.	.
8E\J	.	.	16ee\	.	16gg#\	8E\	a	.	8B\	a	.	8g#\	a	.	8ee\	a	.	.
.	.	.	16ee\JJ	.	16gg#\JJ	.	.	.	.	.	.	.	.	.	.	.	.	.
=82	=82	=82	=82	=82	=82	=82	=82	=82	=82	=82	=82	=82	=82	=82	=82	=82	=82	=82
!	!	!	!	!	!	!LO:SIC:s=8.Dn	!	!	!	!	!	!	!	!	!	!	!LO:N:vis=0	!LO:N:vis=0
8Dn/L	X #2_	.	16ee#X\LL	.	16gg#\LL	8.D#\	Do-	.	8.B\	Do-	.	8.g#\	Do-	.	8.ee#X\	Do-	1r	1r
.	.	.	16ee#\	.	16gg#\	.	.	.	.	.	.	.	.	.	.	.	.	.
8D/	.	.	16ee#\	.	16gg#\	.	.	.	.	.	.	.	.	.	.	.	.	.
!	!	!	!	!	!	!LO:SIC:s=16Dn	!	!	!	!	!	!	!	!	!	!	!	!
.	.	.	16ee#\JJ	.	16gg#\JJ	16D#\	-mi-	.	16B\	-mi-	.	16g#\	-mi-	.	16ee#\	-mi-	.	.
!	!	!	!	!	!	!LO:SIC:s=-no	!	!	!	!	!	!	!	!	!	!	!	!
8C#/	.	.	16ee#\LL	.	16gg#\LL	8C#/	-ne	.	8B\	-no	.	8g#\	-no	.	8ee#\	-no	.	.
.	.	.	16ee#\	.	16gg#\	.	.	.	.	.	.	.	.	.	.	.	.	.
8BB#X/J	X 7	.	16ff#\	.	16gg#\	8BB#X/	a	.	8f#\	a	.	8a\	a	.	8ff#\	a	.	.
.	.	.	16ff#\JJ	.	16gg#\JJ	.	.	.	.	.	.	.	.	.	.	.	.	.
=83	=83	=83	=83	=83	=83	=83	=83	=83	=83	=83	=83	=83	=83	=83	=83	=83	=83	=83
8C#/L	X #	.	4ee#X\	.	4gg#\	8.C#/	Do-	.	8.c#\	Do-	.	8.g#\	Do-	.	8.ee#X\	Do-	.	.
8C#/	.	.	.	.	.	.	.	.	.	.	.	.	.	.	.	.	.	.
.	.	.	.	.	.	16C#/	-mi-	.	16c#\	-mi-	.	16g#\	-mi-	.	16ee#\	-mi-	.	.
!	!	!	!	!	!	!LO:SIC:s=-no	!	!	!	!	!	!	!	!	!	!	!	!
8C#/	.	.	8r	.	8r	8C#/	-ne	.	8c#\	-no	.	8g#\	-no	.	8ee#\	-no	.	.
8AA#X/J	.	.	8cc#\	.	8ee\	8AA#X/	qui	.	8c#\	qui	.	8f#\	qui	.	8een\	qui	.	.
!	!	!	!LO:LB:g=original	!	!	!	!	!	!	!	!	!	!	!	!LO:LB:g=original	!	!	!
=84	=84	=84	=84	=84	=84	=84	=84	=84	=84	=84	=84	=84	=84	=84	=84	=84	=84	=84
!	!	!	!	!	!LO:SIC:s=4ddn	!	!	!	!	!	!	!	!	!	!	!	!	!
8BB/	.	.	4b\	.	4dd#\	8BB/	fe-	.	8B\	fe-	.	8f#\	fe-	.	8ddn\	fe-	2r	2r
4B\	.	.	.	.	.	8B\	-cit	.	8B\	-cit	.	8f#\	-cit	.	8dd\	-cit	.	.
.	.	.	8r	.	8r	8B\	fe-	.	8B\	fe-	.	8f#\	fe-	.	8dd\	fe-	.	.
8A\	.	.	8f#/	.	8cc#\	8An\	-cit	.	8c#\	-cit	.	8f#\	-cit	.	8b\	-cit	.	.
!	!	!	!	!	!	!LO:LB:g=original	!	!	!	!	!	!	!	!	!	!	!	!
=85	=85	=85	=85	=85	=85	=85	=85	=85	=85	=85	=85	=85	=85	=85	=85	=85	=85	=85
8G#\L	X 2	.	8f#/L	.	8b#X\	8G#\	cae-	.	8d#\	cae-	.	8f#\	cae-	.	8b#X\	cae-	4r	4r
8E\	X #6	.	8e/J	.	4cc#\	16E\	-lum	.	16e\	-lum	.	16e\	-lum	.	16cc#\	-lum	.	.
.	.	.	.	.	.	16E\	et	.	16e\	et	.	16g#\	et	.	16cc#\	et	.	.
8F#\	6 5	.	4d#/	.	.	8F#\L	ter-	.	4d#\	ter-	.	8a\L	ter-	.	8cc#\L	ter-	8r	8r
8G#\J	2 #	.	.	.	8b#\	8G#\J	.	.	.	.	.	8g#\J	.	.	8b#X\J	.	8G#/	8G#/
!	!	!	!	!	!	!	!	!	!LO:LB:g=original	!	!	!LO:LB:g=original	!	!	!	!	!LO:LB:g=original	!
=86	=86	=86	=86	=86	=86	=86	=86	=86	=86	=86	=86	=86	=86	=86	=86	=86	=86	=86
!	!	!	!	!	!	!	!	!	!	!	!	!	!	!	!LO:SIC:s=4cc#	!	!	!
!	!	!	!	!	!	!	!	!	!	!	!	!	!	!	!LO:N:vis=8	!	!	!
8C#/L	X n	.	8c#/	.	8cc#\	4C#/	-ram	.	4e\	-ram	.	4g#\	-ram	.	4cc#\	-ram	8G#/L	8G#/L
8C#/	.	.	4ee\	.	4ccc#\	.	.	.	.	.	.	.	.	.	.	.	16G#/L	16G#/L
.	.	.	.	.	.	.	.	.	.	.	.	.	.	.	.	.	16G#/JJ	16G#/JJ
8E/	.	.	.	.	.	8r	.	.	8r	.	.	8r	.	.	8r	.	8G#/L	8G#/L
!	!	!	!LO:TUP:a:problem:klamra łukowa	!	!	!	!	!	!	!	!	!	!	!	!	!	!	!
8G#/J	X #	.	24ff#\LL	.	24ddd#\LL	8G#\	qui	.	8B#X\	qui	.	8g#\	qui	.	8dd#\	qui	8G#/J	8G#/J
.	.	.	24ee\	.	24ccc#\	.	.	.	.	.	.	.	.	.	.	.	.	.
.	.	.	24dd#\JJ	.	24bb\JJ	.	.	.	.	.	.	.	.	.	.	.	.	.
=87	=87	=87	=87	=87	=87	=87	=87	=87	=87	=87	=87	=87	=87	=87	=87	=87	=87	=87
!LO:TX:a:t=P:problem:mixed beam	!	!	!	!	!	!	!	!	!	!	!	!	!	!	!	!	!	!
8c#\L	.	.	8ee\	.	8ccc#\	8c#\	fe-	.	8c#\	fe-	.	8g#\	fe-	.	8ee\	fe-	2G#/	2G#/
8C#/	.	.	4cc#\	.	4ee\	8C#/	-cit	.	8c#\	-cit	.	8g#\	-cit	.	8ee\	-cit	.	.
8E/	.	.	.	.	.	8r	.	.	8r	.	.	8r	.	.	8r	.	.	.
*	*	*	*	*	*	*	*	*	*	*ij	*	*	*ij	*	*	*ij	*	*
!	!	!	!LO:TUP:a:problem:klamra łukowa	!	!	!	!	!	!	!	!	!	!	!	!	!	!	!
8G#/J	.	.	24dd#\LL	.	24ff#\LL	8G#\	qui	.	8B#X\	qui	.	8g#\	qui	.	8dd#\	qui	.	.
.	.	.	24cc#\	.	24ee\	.	.	.	.	.	.	.	.	.	.	.	.	.
.	.	.	24b#X\JJ	.	24dd#\JJ	.	.	.	.	.	.	.	.	.	.	.	.	.
!	!	!	!	!	!LO:LB:g=original	!	!	!	!	!	!	!	!	!	!	!	!	!
=88	=88	=88	=88	=88	=88	=88	=88	=88	=88	=88	=88	=88	=88	=88	=88	=88	=88	=88
!LO:TX:a:t=P:problem:mixed beam	!	!	!	!	!	!	!	!	!	!	!	!	!	!	!	!	!	!
8c#\L	.	.	8cc#\	.	8ee\	8c#\	fe-	.	8c#\	fe-	.	8g#\	fe-	.	8ee\	fe-	2G#/	2G#/
8C#/	.	.	4ee\	.	4ccc#\	8C#/	-cit	.	8c#\	-cit	.	8g#\	-cit	.	8ee\	-cit	.	.
*	*	*	*	*	*	*	*	*	*	*Xij	*	*	*Xij	*	*	*Xij	*	*
8E/	.	.	.	.	.	8r	.	.	8r	.	.	8r	.	.	8r	.	.	.
!	!	!	!LO:TUP:a:problem:klamra łukowa	!	!	!	!	!	!	!	!	!	!	!	!	!	!	!
8G#/J	.	.	24ff#\LL	.	24ddd#\LL	8G#\	qui	.	8B#X\	qui	.	8g#\	qui	.	8dd#\	qui	.	.
.	.	.	24ee\	.	24ccc#\	.	.	.	.	.	.	.	.	.	.	.	.	.
.	.	.	24dd#\JJ	.	24bb#X\JJ	.	.	.	.	.	.	.	.	.	.	.	.	.
=89	=89	=89	=89	=89	=89	=89	=89	=89	=89	=89	=89	=89	=89	=89	=89	=89	=89	=89
8c#\L	.	.	16ee\LL	.	16ccc#\LL	4c#\	fe-	.	4c#\	fe-	.	4g#\	fe-	.	4ee\	fe-	4G#/	4G#/
.	.	.	16ee\	.	16ccc#\	.	.	.	.	.	.	.	.	.	.	.	.	.
8c#\	.	.	16ee\	.	16ccc#\	.	.	.	.	.	.	.	.	.	.	.	.	.
.	.	.	16ee\JJ	.	16ccc#\JJ	.	.	.	.	.	.	.	.	.	.	.	.	.
8c#\	.	.	16ee\LL	.	16ccc#\LL	4c#\	-cit	.	4c#\	-cit	.	4g#\	-cit	.	4ee\	-cit	4r	4r
.	.	.	16ee\	.	16ccc#\	.	.	.	.	.	.	.	.	.	.	.	.	.
8c#\J	.	.	16ee\	.	16ccc#\	.	.	.	.	.	.	.	.	.	.	.	.	.
.	.	.	16ee\JJ	.	16ccc#\JJ	.	.	.	.	.	.	.	.	.	.	.	.	.
!	!	!	!	!	!	!	!	!	!	!	!	!	!	!	!LO:LB:g=original	!	!	!
=90	=90	=90	=90	=90	=90	=90	=90	=90	=90	=90	=90	=90	=90	=90	=90	=90	=90	=90
!	!	!	!	!	!	!	!	!	!LO:SIC:s=cae-	!	!	!	!	!	!	!	!	!
8A\L	.	.	16ee\LL	.	16ccc#\LL	4A\	cae-	.	4c#\	ce-	.	4a\	cae-	.	4ee\	cae-	2r	2r
.	.	.	16ee\	.	16ccc#\	.	.	.	.	.	.	.	.	.	.	.	.	.
8A\	.	.	16ee\	.	16ccc#\	.	.	.	.	.	.	.	.	.	.	.	.	.
.	.	.	16ee\JJ	.	16ccc#\JJ	.	.	.	.	.	.	.	.	.	.	.	.	.
!	!	!	!LO:TX:i:b:t=Da Capo.	!	!	!	!	!	!	!	!	!	!	!	!	!	!	!
8A\	.	.	16ee\LL	.	16ccc#\LL	8A\	-lum	.	8c#\	-lum	.	8a\	-lum	.	8ee\	-lum	.	.
.	.	.	16ee\	.	16ccc#\	.	.	.	.	.	.	.	.	.	.	.	.	.
8A\J	.	.	16ee\	.	16ccc#\	8A\	et	.	8c#\	et	.	8a\	et	.	8ee\	et	.	.
.	.	.	16ee\JJ	.	16ccc#\JJ	.	.	.	.	.	.	.	.	.	.	.	.	.
=91	=91	=91	=91	=91	=91	=91	=91	=91	=91	=91	=91	=91	=91	=91	=91	=91	=91	=91
*	*	*	*	*	*	*	*	*	*	*	*	*	*	*	*2\right	*	*	*
8F#\L	6 5	.	16dd#\LL	.	16ccc#\LL	4F#\	ter-	.	4c#\	ter-	.	(>4a\	ter-	.	2dd#\	ter-	4r	4r
.	.	.	16dd#\	.	16ccc#\	.	.	.	.	.	.	.	.	.	.	.	.	.
8F#\	.	.	16dd#\	.	16ccc#\	.	.	.	.	.	.	.	.	.	.	.	.	.
.	.	.	16dd#\JJ	.	16ccc#\JJ	.	.	.	.	.	.	.	.	.	.	.	.	.
8G#\	.	.	16dd#\LL	.	16bb#X\LL	4G#\	.	.	4B#X\	.	.	4g#\)	.	.	.	.	4G#/	4G#/
.	.	.	16dd#\	.	16bb#\	.	.	.	.	.	.	.	.	.	.	.	.	.
8G#\J	X #	.	16dd#\	.	16bb#\	.	.	.	.	.	.	.	.	.	.	.	.	.
.	.	.	16dd#\JJ	.	16bb#\JJ	.	.	.	.	.	.	.	.	.	.	.	.	.
!	!	!	!	!	!	!LO:LB:g=original	!	!	!	!	!	!	!	!	!	!	!	!
=92	=92	=92	=92	=92	=92	=92	=92	=92	=92	=92	=92	=92	=92	=92	=92	=92	=92	=92
*	*	*	*2\right	*	*2\right	*2\right	*	*	*2\right	*	*	*2\right	*	*	*	*	*	*
!	!	!	!	!	!LO:TX:i:a:t=Da Capo	!LO:TX:i:a:t=Da capo	!	!	!LO:TX:i:a:t=Da Capo	!	!	!LO:TX:i:a:t=Da Capo	!	!	!	!	!LO:TX:i:a:t=Da capo	!LO:TX:i:a:t=Da capo
!	!	!	!	!	!LO:TX:a:t=P:problem:Da capo na pięciolinii za podwójną kreską taktową	!LO:TX:a:t=P:problem:Da capo na pięciolinii za podwójną kreską taktową	!	!	!LO:TX:a:t=P:problem:Da capo na pięciolinii za podwójną kreską taktową	!	!	!LO:TX:a:t=P:problem:Da capo na pięciolinii za podwójną kreską taktową	!	!	!	!	!LO:TX:a:t=P:problem:Da capo na pięciolinii za podwójną kreską taktową	!LO:TX:a:t=P:problem:Da capo na pięciolinii za podwójną kreską taktową
2C#/	.	.	2ee#X\	.	2ccc#\	2C#/	-ram	.	2c#\	-ram	.	2g#\	-ram	.	2ee#X\	-ram	2G#/	2G#/
==	==	==	==	==	==	==	==	==	==	==	==	==	==	==	==	==	==;;>	==
*-	*-	*-	*-	*-	*-	*-	*-	*-	*-	*-	*-	*-	*-	*-	*-	*-	*-	*-
!!!system-decoration: s1,s2[(s3,s4,s5,s6)][(s7,s8)]s9
!!!RDF**kern: > = above
!!!RDF**kern: < = below
!!!EED: Mateusz Mrugas
!!!EST: 2020-10-14
!!!ENC: Tomasz Grochalski
!!!END: 2020-05-28
